/* XPM */
static char *_e73fcaad98c43dcd36f883ff83e814dwfYA8Tx0m3NfjFIO[] = {
/* columns rows colors chars-per-pixel */
"256 256 215 2 ",
"   c None",
".  c #1E527D",
"X  c #194F7E",
"o  c #24557D",
"O  c #2C5B7D",
"+  c #2A5777",
"@  c #325D7A",
"#  c #39627D",
"$  c #36617B",
"%  c #476977",
"&  c #5E7876",
"*  c #56757C",
"=  c #587476",
"-  c #4E717D",
";  c #657B74",
":  c #768673",
">  c #708273",
",  c #858E6F",
"<  c #8A8E66",
"1  c #8D936E",
"2  c #91946B",
"3  c #9B9A6B",
"4  c #98996A",
"5  c #8C957E",
"6  c #889172",
"7  c #9C9D75",
"8  c #94997B",
"9  c #969A79",
"0  c #828C70",
"q  c #A29E6A",
"w  c #A09E72",
"e  c #A5A16C",
"r  c #ACA46C",
"t  c #AFA666",
"y  c #BBAC65",
"u  c #B4A969",
"i  c #B5A968",
"p  c #A4A172",
"a  c #A9A470",
"s  c #B0AC72",
"d  c #CCB45D",
"f  c #C6B15F",
"g  c #DBBA53",
"h  c #D1B65A",
"j  c #D3BA5D",
"k  c #D7B958",
"l  c #DFBB4E",
"z  c #E4BE4D",
"x  c #E0BD50",
"c  c #C1AF62",
"v  c #C4B162",
"b  c #CBB764",
"n  c #D4BC64",
"m  c #D8BE60",
"M  c #CCBC71",
"N  c #EEC245",
"B  c #EBC14A",
"V  c #E7C04C",
"C  c #F0C343",
"Z  c #E7C154",
"A  c #E8C151",
"S  c #EFC957",
"D  c #E4C45C",
"F  c #E9C75B",
"G  c #EFCA58",
"H  c #F0CA57",
"J  c #F1CB59",
"K  c #DBC161",
"L  c #D3C27D",
"P  c #EECC63",
"I  c #EECE6B",
"U  c #E1C461",
"Y  c #EFD174",
"T  c #EED27B",
"R  c #F0D47C",
"E  c #F0D275",
"W  c #EFD06E",
"Q  c #DEC15E",
"!  c #003F86",
"~  c #044486",
"^  c #084785",
"/  c #0D4985",
"(  c #01448A",
")  c #07488B",
"_  c #0C4B8D",
"`  c #134D84",
"'  c #124E8D",
"]  c #1B5387",
"[  c #1C5691",
"{  c #1F5892",
"}  c #165390",
"|  c #265983",
" . c #225B95",
".. c #295F97",
"X. c #2A629A",
"o. c #27609B",
"O. c #36699D",
"+. c #386A9D",
"@. c #376280",
"#. c #3B6EA0",
"$. c #3F71A3",
"%. c #5D7E96",
"&. c #557B9D",
"*. c #5B7E99",
"=. c #49718E",
"-. c #607F94",
";. c #4574A6",
":. c #4976A6",
">. c #4D78A3",
",. c #4776AA",
"<. c #4976A8",
"1. c #4D7AAA",
"2. c #5179A1",
"3. c #537EAC",
"4. c #5E8098",
"5. c #6B848D",
"6. c #688385",
"7. c #73898C",
"8. c #798C89",
"9. c #7B8D87",
"0. c #638194",
"q. c #6A8692",
"w. c #798F8F",
"e. c #5581AD",
"r. c #5A83AE",
"t. c #5C85B1",
"y. c #5C86B1",
"u. c #6389AF",
"i. c #648BB3",
"p. c #698EB6",
"a. c #658CB6",
"s. c #6C91B7",
"d. c #6D92B8",
"f. c #6B95BA",
"g. c #7295BA",
"h. c #7399BD",
"j. c #7B9CBE",
"k. c #7395B6",
"l. c #7C9EC1",
"z. c #7EA1C3",
"x. c #859283",
"c. c #8C9682",
"v. c #89978B",
"b. c #8CA6BA",
"n. c #ABB29E",
"m. c #F0D683",
"M. c #F1D98B",
"N. c #F1D788",
"B. c #F2DC93",
"V. c #F3DE9B",
"C. c #EFD584",
"Z. c #F4E09C",
"A. c #F4E1A3",
"S. c #F5E4AC",
"D. c #F6E6B3",
"F. c #F7E9BC",
"G. c #F7E9B7",
"H. c #D8CD9B",
"J. c #84A3C2",
"K. c #8BA9C6",
"L. c #8EABC9",
"P. c #89A6C5",
"I. c #92AECA",
"U. c #93ADC7",
"Y. c #96B1CC",
"T. c #9AB3CD",
"R. c #9EB8CF",
"E. c #9EB7D0",
"W. c #A3B8CD",
"Q. c #A3BBD2",
"!. c #A8BED4",
"~. c #809FC0",
"^. c #ADC2D6",
"/. c #ADC4D9",
"(. c #B1C6D9",
"). c #B6C9DB",
"_. c #BBCDDD",
"`. c #B1C5D7",
"'. c #BED0DF",
"]. c #BACFE0",
"[. c #BED0E1",
"{. c #C3D2DD",
"}. c #DBDDCD",
"|. c #F7EBC2",
" X c #F8EDC5",
".X c #F8EECA",
"XX c #F9F0CE",
"oX c #FAF2D4",
"OX c #FBF4DC",
"+X c #F7F3DC",
"@X c #F0ECD3",
"#X c #C4D4E2",
"$X c #CCDAE5",
"%X c #CBD9E5",
"&X c #D0DCE6",
"*X c #D2DEE9",
"=X c #D5E1EB",
"-X c #DBE5ED",
";X c #DFE8EF",
":X c #D9E3E7",
">X c #DDEAF0",
",X c #DAE7F1",
"<X c #E4EAED",
"1X c #FCF7E3",
"2X c #FDFAEC",
"3X c #FCF8E7",
"4X c #E4ECF2",
"5X c #E8EFF4",
"6X c #ECF2F6",
"7X c #EFF4F8",
"8X c #F0F4F6",
"9X c #FEFCF4",
"0X c #F2F6F9",
"qX c #F6FAFB",
"wX c #FFFFFF",
/* pixels */
"                                                                                                                                                                                                                                                                                                                                                                                                                                                                                                                                ",
"                                                                                                                                                                                                                                                                                                                                                                                                                                                                                                                                ",
"                                                                                                                                                                                                                                                                                                                                                                                                                                                                                                                                ",
"                                                                                                                                                                                                                                                                                                                                                                                                                                                                                                                                ",
"                                                                                                                                                                                                                                                                                                                                                                                                                                                                                                                                ",
"                                                                                                                                                                                                                                                                                                                                                                                                                                                                                                                                ",
"                                                                                                                                                                                                                                                                                                                                                                                                                                                                                                                                ",
"                                                                                                                                                                                                                                                                                                                                                                                                                                                                                                                                ",
"                                                                                                                                                                                                                                                                                                                                                                                                                                                                                                                                ",
"                                                                                                                                                                                                                                                                                                                                                                                                                                                                                                                                ",
"                                                                                                                                                                                                                                          <.<.<.<.:.:.<.1.<.<.<.<.<.<.1.<.:.:.<.:.:.x.                                                                                                                                                                                                                                          ",
"                                                                                                                                                                                                                          :.:.<.<.<.<.<.<.<.<.<.<.<.<.<.<.<.<.<.<.<.<.<.<.<.<.<.<.q.f B B B N B B B A                                                                                                                                                                                                                           ",
"                                                                                                                                                                                                              :.:.:.<.<.<.<.<.<.<.<.<.<.<.<.<.<.<.<.<.<.<.<.<.<.<.<.<.<.<.<.<.<.0.f N N N N N N N N N N B B B A Z                                                                                                                                                                                                               ",
"                                                                                                                                                                                                      :.<.<.<.<.<.<.<.<.<.<.<.<.<.<.<.<.<.<.<.<.<.<.<.<.<.<.<.<.<.<.<.<.<.<.<.0.c N N N N N N N N N N N N N N N N B B B Z                                                                                                                                                                                                       ",
"                                                                                                                                                                                              <.:.:.<.<.<.<.<.<.<.<.<.<.<.<.<.<.<.<.<.<.<.<.<.<.<.<.<.<.<.<.<.<.<.<.<.<.<.<.0.y N N N N N N N N N N N N N N N N N N N N N B B Z Z                                                                                                                                                                                               ",
"                                                                                                                                                                                        <.<.<.<.<.<.<.<.<.<.<.<.<.<.<.<.<.<.<.<.<.<.<.<.<.<.<.<.<.<.<.<.<.<.<.<.<.<.<.<.<.0.y N N N N N N N N N N N N N N N N N N N N N N N N N N B A Z                                                                                                                                                                                         ",
"                                                                                                                                                                                  :.<.<.<.<.<.<.<.<.<.<.<.<.<.<.<.<.<.<.<.<.<.<.<.<.<.<.<.<.<.<.<.<.<.<.<.<.<.<.<.<.<.<.%.y N N N N N N N N N N N N N N N N N N N N N N N N N N N N N N B B A                                                                                                                                                                                   ",
"                                                                                                                                                                            :.<.<.<.<.<.<.<.<.<.<.<.<.<.<.<.<.<.<.<.<.<.<.<.<.<.<.<.<.<.<.<.<.<.<.<.<.<.<.<.<.<.<.<.<.%.y N N N N N N N N N N N N N N N N N N N N N N N N N N N N N N N N N N B B Z                                                                                                                                                                             ",
"                                                                                                                                                                        :.<.<.<.<.<.<.<.<.<.<.<.<.<.<.<.<.<.<.<.<.<.<.<.<.<.<.<.<.<.<.<.<.<.<.<.<.<.<.<.<.<.<.<.<.<.*.y B N N N N N N N N N N N N N N N N N N N N N N N N N N N N N N N N N N N N N B A                                                                                                                                                                         ",
"                                                                                                                                                                  :.<.<.<.<.<.<.<.<.<.<.<.<.<.<.<.<.<.<.<.<.<.<.<.<.<.<.<.<.<.<.<.<.<.<.<.<.<.<.<.<.<.<.<.<.<.<.<.*.i N N N N N N N N N N N N N N N N N N N N N N N N N N N N N N N N N N N N N N N N N B B Z                                                                                                                                                                   ",
"                                                                                                                                                              :.<.<.<.<.<.<.<.<.<.<.<.<.<.<.<.<.<.<.<.<.<.<.<.<.<.<.<.<.<.<.<.<.<.<.<.<.<.<.<.<.<.<.<.<.<.<.<.<.*.t B N N N N N N N N N N N N N N N N N N N N N N N N N N N N N N N N N N N N N N N N N N N N B Z                                                                                                                                                               ",
"                                                                                                                                                          <.<.<.<.<.<.<.<.<.<.<.<.<.<.<.<.<.<.<.<.<.<.<.<.<.<.<.<.<.<.<.<.<.<.<.<.<.<.<.<.<.<.<.<.<.<.<.<.<.<.&.r B N N N N N N N N N N N N N N N N N N N N N N N N N N N N N N N N N N N N N N N N N N N N N N N B A                                                                                                                                                           ",
"                                                                                                                                                      <.<.<.<.<.<.<.<.<.<.<.<.<.<.<.<.<.<.<.<.<.<.<.<.<.<.<.<.<.<.<.<.<.<.<.<.<.<.<.<.<.<.<.<.<.<.<.<.<.<.<.<.x.h k k g g l z V B B N N N N N N N N N N N N N N N N N N N N N N N N N N N N N N N N N N N N N N N N N B A                                                                                                                                                       ",
"                                                                                                                                                  <.<.<.<.<.<.<.<.<.<.<.<.<.<.<.<.<.<.<.<.<.<.<.<.<.<.<.<.<.<.<.<.<.<.<.<.<.<.<.<.<.<.<.<.<.<.<.<.<.<.<.<.<.<.&.-.-.-.0.6.5.8.x.c.9 p r y d k x B B N N N N N N N N N N N N N N N N N N N N N N N N N N N N N N N N N N N B A                                                                                                                                                   ",
"                                                                                                                                              <.<.<.<.<.<.<.<.<.<.<.<.<.<.<.<.<.<.<.<.<.<.<.<.<.<.<.<.<.<.<.<.<.<.<.<.<.<.<.<.<.<.<.<.<.<.<.<.<.<.<.<.<.<.<.<.<.<.<.<.,.<.<.<.,.<.<.:.:.>.&.0.7.x.9 t b k z B N N N N N N N N N N N N N N N N N N N N N N N N N N N N N N N N B Z                                                                                                                                               ",
"                                                                                                                                          :.<.<.<.<.<.<.<.<.<.<.<.<.<.<.<.<.<.<.<.<.<.<.<.<.<.<.<.<.<.<.<.<.<.<.<.<.<.<.<.<.<.<.<.<.<.<.<.<.<.<.<.<.<.<.<.<.<.<.<.<.<.<.<.<.<.<.<.<.<.<.<.<.,.,.<.<.>.&.0.8.9 t d g B N N N N N N N N N N N N N N N N N N N N N N N N N N N N N N B Z                                                                                                                                           ",
"                                                                                                                                      :.<.<.<.<.<.<.<.<.<.<.<.<.<.<.<.<.<.<.<.<.<.<.<.<.<.<.<.<.<.<.<.<.<.<.<.<.<.<.<.<.<.<.<.<.<.<.<.<.<.<.<.<.<.<.<.<.<.<.<.<.<.<.<.<.<.<.<.<.<.<.<.<.<.<.<.<.<.<.<.<.<.<.<.>.*.7.5 r h z N N N N N N N N N N N N N N N N N N N N N N N N N N N N N B D                                                                                                                                       ",
"                                                                                                                                    :.<.<.<.<.<.<.<.<.<.<.<.<.<.<.<.<.<.<.<.<.<.<.<.<.<.<.<.<.<.<.<.<.<.<.<.<.<.<.<.<.<.<.<.<.<.<.<.<.<.<.<.<.<.<.<.<.<.<.<.<.<.<.<.<.<.<.<.<.<.<.<.<.<.<.<.<.<.<.<.<.<.<.<.<.<.<.<.<.:.4.8.7 v x N N N N N N N N N N N N N N N N N N N N N N N N N N N B A                                                                                                                                     ",
"                                                                                                                                :.<.<.<.<.<.<.<.<.<.<.<.<.<.<.<.<.<.<.<.<.<.<.<.<.<.<.<.<.<.<.<.<.<.<.<.<.<.<.<.<.<.<.<.<.<.<.<.<.<.<.<.<.<.<.<.<.<.<.<.<.<.<.<.<.<.<.<.<.<.<.<.<.<.<.<.<.<.<.<.<.<.<.<.<.<.<.<.<.<.<.<.<.<.:.&.7.7 f x N N N N N N N N N N N N N N N N N N N N N N N N N N B Z                                                                                                                                 ",
"                                                                                                                              <.<.<.<.<.<.<.<.<.<.<.<.<.<.<.<.<.<.<.<.<.<.<.<.<.<.<.<.<.<.<.<.<.<.<.<.<.<.<.<.<.<.<.<.<.<.<.<.<.<.<.<.<.<.<.<.<.<.<.<.<.<.<.<.<.<.<.<.<.<.<.<.<.<.<.<.<.<.<.<.<.<.<.<.<.<.<.<.<.<.<.<.<.<.<.<.<.<.:.&.8.p d V N N N N N N N N N N N N N N N N N N N N N N N N N A                                                                                                                               ",
"                                                                                                                          <.<.<.<.<.<.<.<.<.<.<.<.<.<.<.<.<.<.<.<.<.<.<.<.<.<.<.<.<.<.<.<.<.<.<.<.<.<.<.<.<.<.<.<.<.<.<.<.<.<.<.<.<.<.<.<.<.<.<.<.<.<.<.<.<.<.<.<.<.<.<.<.<.<.<.<.<.<.<.<.<.<.<.<.<.<.<.<.<.<.<.<.<.<.<.<.<.<.<.<.<.<.<.:.*.x.i g N N N N N N N N N N N N N N N N N N N N N N N N B Z                                                                                                                           ",
"                                                                                                                        <.<.<.<.<.<.<.<.<.<.<.<.<.<.<.<.<.<.<.<.<.<.<.<.<.<.<.<.<.<.<.<.<.<.<.<.<.<.<.<.<.<.<.<.<.<.<.<.<.<.<.<.<.<.<.<.<.<.<.<.<.<.<.<.<.<.<.<.<.<.<.<.<.<.<.<.<.<.<.<.<.<.<.<.<.<.<.<.<.<.<.<.<.<.<.<.<.<.<.<.<.<.<.<.<.<.<.>.7.p k B N N N N N N N N N N N N N N N N N N N N N N N A                                                                                                                         ",
"                                                                                                                    :.<.<.<.<.<.<.<.<.<.<.<.<.<.<.<.<.<.<.<.<.<.<.<.<.<.<.<.<.<.<.<.<.<.<.<.<.<.<.<.<.<.<.<.<.<.<.<.<.<.<.<.<.<.<.<.<.<.<.<.<.<.<.<.<.<.<.<.<.<.<.<.<.<.<.<.<.<.<.<.<.<.<.<.<.<.<.<.<.<.<.<.<.<.<.<.<.<.<.<.<.<.<.<.<.<.<.<.<.<.<.:.0.8 d V N N N N N N N N N N N N N N N N N N N N N N B Z                                                                                                                     ",
"                                                                                                                  :.<.<.<.<.<.<.<.<.<.<.<.<.<.<.<.<.<.<.<.<.<.<.<.<.<.<.<.<.<.<.<.<.<.<.<.<.<.<.<.<.<.<.<.<.<.<.<.<.<.<.<.<.<.<.<.<.<.<.<.<.<.<.<.<.<.<.<.<.<.<.<.<.<.<.<.<.<.<.<.<.<.<.<.<.<.<.<.<.<.<.<.<.<.<.<.<.<.<.<.<.<.<.<.<.<.<.<.<.<.<.<.<.<.<.*.5 v V N N N N N N N N N N N N N N N N N N N N N B Z                                                                                                                   ",
"                                                                                                                :.<.<.<.<.<.<.<.<.<.<.<.<.<.<.<.<.<.<.<.<.<.<.<.<.<.<.<.<.<.<.<.<.<.<.<.<.<.<.<.<.<.<.<.<.<.<.<.<.<.<.<.<.<.<.<.<.<.,.;.;.;.:.3.y.y.r.r.u.u.u.u.u.u.u.u.r.t.y.r.1.;.<.,.<.<.<.<.<.<.<.<.<.<.<.<.<.<.<.<.<.<.<.<.<.<.<.<.<.<.<.<.<.<.<.<.<.<.*.c.v B N N N N N N N N N N N N N N N N N N N N N B                                                                                                                 ",
"                                                                                                            :.<.<.<.<.<.<.<.<.<.<.<.<.<.<.<.<.<.<.<.<.<.<.<.<.<.<.<.<.<.<.<.<.<.<.<.<.<.<.<.<.<.<.<.<.<.<.<.<.<.<.<.<.<.<.;.<.1.e.a.h.P.T.Q.).%X,X5X5X6X6X7X7X7X7X7X7X7X6X6X5X=X#X^.!.Y.P.h.i.3.<.<.,.<.<.<.<.<.<.<.<.<.<.<.<.<.<.<.<.<.<.<.<.<.<.<.<.<.<.<.<.<.*.9 d B N N N N N N N N N N N N N N N N N N N N B                                                                                                               ",
"                                                                                                          :.<.<.<.<.<.<.<.<.<.<.<.<.<.<.<.<.<.<.<.<.<.<.<.<.<.<.<.<.<.<.<.<.<.<.<.<.<.<.<.<.<.<.<.<.<.<.<.<.<.<.<.;.1.r.p.K./._.=X6XqXwXwXwXwXwXwXwXwX9X9X2X2X2X2X2X2X2X2X9X9XwXwXwXwXwXqX0X6X*X_.!.J.i.r.<.;.<.<.<.<.<.<.<.<.<.<.<.<.<.<.<.<.<.<.<.<.<.<.<.<.<.<.:.0.7 g N N N N N N N N N N N N N N N N N N N N B A                                                                                                           ",
"                                                                                                        <.<.<.<.<.<.<.<.<.<.<.<.<.<.<.<.<.<.<.<.<.<.<.<.<.<.<.<.<.<.<.<.<.<.<.<.<.<.<.<.<.<.<.<.<.<.<.<.,.;.<.y.j.T.#X;X7XwXwXwXwXwX9X3XOXoX|.G.S.V.B.M.C.T T T T T T T T C.M.B.V.S.G.|.oXOX3X9XwXwXqX6X-X).L.d.e.<.<.<.<.<.<.<.<.<.<.<.<.<.<.<.<.<.<.<.<.<.<.<.<.<.<.:.5.r z N N N N N N N N N N N N N N N N N N N N A                                                                                                         ",
"                                                                                                      <.<.<.<.<.<.<.<.<.<.<.<.<.<.<.<.<.<.<.<.<.<.<.<.<.<.<.<.<.<.<.<.<.<.<.<.<.<.<.<.<.<.<.<.<.<.<.<.1.i.I.).>XqXwXwXwXwX9X1XXXD.V.M.R I P G G G S S S S S S S S S S S S S S S S G G G P I T M.V.D.XX1X9XwXwX0X=X(.P.t.1.<.<.<.<.<.<.<.<.<.<.<.<.<.<.<.<.<.<.<.<.<.<.<.<.2.x.v B N N N N N N N N N N N N N N N N N N N B                                                                                                       ",
"                                                                                                    <.<.<.<.<.<.<.<.<.<.<.<.<.<.<.<.<.<.<.<.<.<.<.<.<.<.<.<.<.<.<.<.<.<.<.<.<.<.<.<.<.<.<.<.<.;.1.s.R.#X5XwXwXwXwX2XOXF.V.m.Y P G S S S S S S S S S S S S S S S S S S S S S S S S S S S S S S S S G P W m.V.G.OX2XwXqX4X[.L.a.1.;.<.<.<.<.<.<.<.<.<.<.<.<.<.<.<.<.<.<.<.<.<.<.*.7 g N N N N N N N N N N N N N N N N N N N B                                                                                                     ",
"                                                                                                >.<.<.<.<.<.<.<.<.<.<.<.<.<.<.<.<.<.<.<.<.<.<.<.<.<.<.<.<.<.<.<.<.<.<.<.<.<.<.<.<.<.<.<.;.1.a.I.#X7XwXwXwX9X1X|.A.m.I G S S S S S S S S S G G S G G S G G G G G G G G G G G S S G G G S G S S G G S S S S S G P R Z.F.1X9XwX5X).J.t.<.<.<.<.<.<.<.<.<.<.<.<.<.<.<.<.<.<.<.<.<.<.:.8.y B N N N N N N N N N N N N N N N N N N B                                                                                                   ",
"                                                                                              :.<.<.<.<.<.<.<.<.<.<.<.<.<.<.<.<.<.<.<.<.<.<.<.<.<.<.<.<.<.<.<.<.<.<.<.<.<.<.<.<.<.<.<.3.j.).4XwXwXwX9XOXG.B.Y G G S S S S S S G G G G G G G G S G G S G G G G G G G G G G G S S G G G S G G G G G G G G S G S S S S G Y M.G.OX9XqX=X!.d.1.<.<.<.<.<.<.<.<.<.<.<.<.<.<.<.<.<.<.<.<.<.*.7 g N N N N N N N N N N N N N N N N N N B                                                                                                 ",
"                                                                                            :.<.<.<.<.<.<.<.<.<.<.<.<.<.<.<.<.<.<.<.<.<.<.<.<.<.<.<.<.<.<.<.<.<.<.<.<.<.<.<.<.<.<.t.I.$XqXwXwXwX1XF.B.I G S S S G S S S G G G G G G G G G G G G S S G G G G G G G G G G G G G G S S S G G G G S S S S S G S S G S G S S S G I M.F.1XwX7X_.l.3.<.<.<.<.<.<.<.<.<.<.<.<.<.<.<.<.<.<.<.<.:.8.f N N N N N N N N N N N N N N N N N N B Z                                                                                             ",
"                                                                                          :.<.<.<.<.<.<.<.<.<.<.<.<.<.<.<.<.<.<.<.<.<.<.<.<.<.<.<.<.<.<.<.<.<.<.<.<.<.<.<.<.<.i.R.-XwXwXwX9XoXA.Y G S S S S S S S G G G G G G G G G G G G G G G G G G G G G G G G G G G G G G G G G G G G G G G G G G G G G G G G G S S S S S S G Y V.XX9XqX$XP.e.<.<.<.<.<.<.<.<.<.<.<.<.<.<.<.<.<.<.<.<.4.r z N N N N N N N N N N N N N N N N N B Z                                                                                           ",
"                                                                                        :.<.<.<.<.<.<.<.<.<.<.<.<.<.<.<.<.<.<.<.<.<.<.<.<.<.<.<.<.<.<.<.<.<.<.<.<.<.<.<.<.a.Q.4XwXwXwX3XF.M.P G S S S G G G S S S S G G G G G G G G G G G G G G G G G G G G G G G G G G G G G G G G G G G G G G G G G G G G G G G G G S S S S S S S G P C.G.3XqX=XI.t.;.<.<.<.<.<.<.<.<.<.<.<.<.<.<.<.<.<.<.2.5 g N N N N N N N N N N N N N N N N N B Z                                                                                         ",
"                                                                                      :.<.<.<.<.<.<.<.<.<.<.<.<.<.<.<.<.<.<.<.<.<.<.<.<.<.<.<.<.<.<.<.<.<.<.<.<.<.<.<.t.R.4XwXwXwX1XD.R G S S S S S S G G G S S S S G G G G G G G G G G G G G G G G G G G G G G G G G G G G G G G G G G G G G G G G G G G G G G G G G G G S S G G S S S S G E S.1XqX=XL.e.<.<.<.<.<.<.<.<.<.<.<.<.<.<.<.<.<.<.:.8.d N N N N N N N N N N N N N N N N N B Z                                                                                       ",
"                                                                                    :.<.<.<.<.<.<.<.<.<.<.<.<.<.<.<.<.<.<.<.<.<.<.<.<.<.<.<.<.<.<.<.<.<.<.<.<.<.<.t.T.-XwXwXwX1XS.E G S S G S G G G G G G G G G G G G G G G G G G G G G G G G G G G G G G G G G G G G G G G G G G G G G G G G G G G G G G G G G G G G G G G G G G G G G S S S G Y A.OXqX&XJ.1.<.<.<.<.<.<.<.<.<.<.<.<.<.<.<.<.<.<.0.y B N N N N N N N N N N N N N N N N B Z                                                                                     ",
"                                                                                  :.<.<.<.<.<.<.<.<.<.<.<.<.<.<.<.<.<.<.<.<.<.<.<.<.<.<.<.<.<.<.<.<.<.<.<.<.<.1.J.*XwXwXwX3XS.Y G S S S S S G G G G G G G G G G G G G G G G G G G G G G G G G G G G G G G G G G G G G G G G G G G G G G G G G G G G G G G G G G G G G G G G G G G G G G S G G G S G Y A.1X8X].d.<.<.<.<.<.<.<.<.<.<.<.<.<.<.<.<.<.<.*.p z N N N N N N N N N N N N N N N N B                                                                                     ",
"                                                                                :.<.<.<.<.<.<.<.<.<.<.<.<.<.<.<.<.<.<.<.<.<.<.<.<.<.<.<.<.<.<.<.<.<.<.<.<.<.s._.0XwXwX2XG.R G S S S G G G G G G G G G G G G G G G G G G G G G G G G G G G G G G G G G G G G G G G G G G G G G G G G G G G G G G G G G G G G G G G G G G G G G G G G G G G S S S G G S G Y S.3X5X!.r.<.<.<.<.<.<.<.<.<.<.<.<.<.<.<.<.<.2.9 g N N N N N N N N N N N N N N N N B                                                                                   ",
"                                                                                <.<.<.<.<.<.<.<.<.<.<.<.<.<.<.<.<.<.<.<.<.<.<.<.<.<.<.<.<.<.<.<.<.<.<.<.e.T.4XwXwX9X.XN.G S S S G G G G G G G G G G G G G G G G G G G G G G G G G G G G G G G G G G G G G G G G G G G G G G G G G G G G G G G G G G G G G G G G G G G G G G G G G G G G G G G G S G G S S G R |.9X*XJ.1.<.<.<.<.<.<.<.<.<.<.<.<.<.<.<.<.:.x.g N N N N N N N N N N N N N N N N B                                                                                 ",
"                                                                              <.<.<.<.<.<.<.<.<.<.<.<.<.<.<.<.<.<.<.<.<.<.<.<.<.<.<.<.<.<.<.<.<.<.<.<.g.#XwXwXwXOXV.P S S S G G G G G G G G G G G G G G G G G G G G G G G G G G G G G G G G G G G G G G G G G G G G G G G G G G G G G G G G G G G G G G G G G G G G G G G G G G G G G G G G G G G G G G G S S P B.oX8X(.u.;.<.<.<.<.<.<.<.<.<.<.<.<.<.<.<.:.8.j N N N N N N N N N N N N N N N N B                                                                               ",
"                                                                            <.<.<.<.<.<.<.<.<.<.<.<.<.<.<.<.<.<.<.<.<.<.<.<.<.<.<.<.<.<.<.<.<.<.<.1.Y.5XwXwX9XG.Y G S S G G G G G G G G G G G G G G G G G G G G G G G G G G G G G G G G G G G G G G G G G G G G G G G G G G G G G G G G G G G G G G G G G G G G G G G G G G G G G G G G G G G G G G G G G G S S G I S.2X=XJ.1.<.<.<.<.<.<.<.<.<.<.<.<.<.<.<.<.8.h N N N N N N N N N N N N N N N N B                                                                             ",
"                                                                          :.<.<.<.<.<.<.<.<.<.<.<.<.<.<.<.<.<.<.<.<.<.<.<.<.<.<.<.<.<.<.<.<.<.<.a._.qXwXwXOXB.G S S S S G G G G G G G G G G G G G G G G G G G G G G G G G G G G G G G G G G G G G G G G G G G G G G G G G G G G G G G G G G G G G G G G G G G G G G G G G G G G G G G G G G G G G G G G G G S S S S G N.oX8X!.3.<.<.<.<.<.<.<.<.<.<.<.<.<.<.<.<.7.d N N N N N N N N N N N N N N N N A                                                                           ",
"                                                                        :.<.<.<.<.<.<.<.<.<.<.<.<.<.<.<.<.<.<.<.<.<.<.<.<.<.<.<.<.<.<.<.<.<.<.J.-XwXwX9XG.Y G S S S G G G G G G G G G G G G G G G G G G G G G G G G G G G G G G G G G G G G G G G G G G G G G G G G G G G G G G G G G G G G G G G G G G G G G G G G G G G G G G G G G G G G G G G G G G G G G G G S S S I S.2X#Xp.<.<.<.<.<.<.<.<.<.<.<.<.<.<.<.<.7.d N N N N N N N N N N N N N N N N A                                                                         ",
"                                                                      :.<.<.<.<.<.<.<.<.<.<.<.<.<.<.<.<.<.<.<.<.<.<.<.<.<.<.<.<.<.<.<.<.<.3.Q.7XwXwX1XV.P S S G G G G G G G G G G G G G G G G G G G G G G G G G G G G G G G G G G G G G G G G G G G G G G G G G G G G G G G G G G G G G G G G G G G G G G G G G G G G G G G G G G G G G G G G G G G G G G G G G G G G S S G M.OX>XP.<.<.<.<.<.<.<.<.<.<.<.<.<.<.<.<.7.d N N N N N N N N N N N N N N N B                                                                         ",
"                                                                      <.<.<.<.<.<.<.<.<.<.<.<.<.<.<.<.<.<.<.<.<.<.<.<.<.<.<.<.<.<.<.<.,.t.].qXwXwXXXR G S S G G G G G G G G G G G G G G G G G G G G G G G G G G G G G G G G G G G G G G G G G G G G G G G G G G G G G G G G G G G G G G G G G G G G G G G G G G G G G G G G G G G G G G G G G G G G G G G G G G G G G G S S S Y  X6XE.1.<.<.<.<.<.<.<.<.<.<.<.<.<.<.<.7.h N N N N N N N N N N N N N N N B                                                                       ",
"                                                                    <.<.<.<.<.<.<.<.<.<.<.<.<.<.<.<.<.<.<.<.<.<.<.<.<.<.<.<.<.<.<.<.<.s.$XwXwX9XG.I S S G S G G G G G G G G G G G G G G G G G G G G G G G G G G G G G G G G G G G G G G G G G G G G G G G G G G G G G G G G G G G G G G G G G G G G G G G G G G G G G G G G G G G G G G G G G G G G G G G G G G G G G G G S S S P S.2X).y.<.<.<.<.<.<.<.<.<.<.<.<.<.<.<.8.h N N N N N N N N N N N N N N N B                                                                     ",
"                                                                  :.<.<.<.<.<.<.<.<.<.<.<.<.<.<.<.<.<.<.<.<.<.<.<.<.<.<.<.<.<.<.<.<.j.;XwXwX3XZ.P S G G S G G G G G G G G G G G G G G G G G G G G G G G G G G G G G G G G G G G G G G G G G G G G G G G G G G G G G G G G G G G G G G G G G G G G G G G G G G G G G G G G G G G G G G G G G G G G G G G G G G G G G G G G G G S S G V.1X#Xa.<.<.<.<.<.<.<.<.<.<.<.<.<.<.<.8.g N N N N N N N N N N N N N N N A                                                                   ",
"                                                                :.<.<.<.<.<.<.<.<.<.<.<.<.<.<.<.<.<.<.<.<.<.<.<.<.<.<.<.<.<.<.<.<.J.5XwXwXOXM.G S S S S G G G G G G G G G G G G G G G G G G G G G G G G G G G G G G G G G G G G G G G G G G G G G G G G G G G G G G G G G G G G G G G G G G G G G G G G G G G G G G G G G G G G G G G G G G G G G G G G G G G G G G G G G G G S G S G m.oX=Xd.<.<.<.<.<.<.<.<.<.<.<.<.<.<.:.x.g N N N N N N N N N N N N N N B Z                                                                 ",
"                                                                <.<.<.<.<.<.<.<.<.<.<.<.<.<.<.<.<.<.<.<.<.<.<.<.<.<.<.<.<.<.<.1.I.7XwXwXoXR G S G G G G G G G G G G G G G G G G G G G G G G G G G G G G G G G G G G G G G G G G G G G G G G G G G G G G G G G G G G G G G G G G G G G G G G G G G G G G G G G G G G G G G G G G G G G G G G G G G G G G G G G G G G G G G G G S G G S S Y XX-Xj.<.<.<.<.<.<.<.<.<.<.<.<.<.<.:.8 z N N N N N N N N N N N N N N B                                                                 ",
"                                                              <.<.<.<.<.<.<.<.<.<.<.<.<.<.<.<.<.<.<.<.<.<.<.<.<.<.<.<.<.<.<.1.T.0XwXwX.XY S S G G G G G G G G G G G G G G G G G G G G G G G G G G G G G G G G G G G G G G G G G G G G G G G G G G G G G G G G G G G G G G G G G G G G G G G G G G G G G G G G G G G G G G G G G G G G G G G G G G G G G G G G G G G G G G G G S G G G S S I F.<XJ.<.<.<.<.<.<.<.<.<.<.<.<.<.<.>.p B N N N N N N N N N N N N N N B                                                               ",
"                                                            :.<.<.<.<.<.<.<.<.<.<.<.<.<.<.<.<.<.<.<.<.<.<.<.<.<.<.<.<.<.<.1.R.0XwXwX|.I S S G G G G G G G G G G G G G G G G G G G G G G G G G G G G G G G G G G G G G G G G G G G G G G G G G G G G G G G G G G G G G G G G G G G G G G G G G G G G G G G G G G G G G G G G G G G G G G G G G G G G G G G G G G G G G G G G G G S S G S G S I G.<XP.<.<.<.<.<.<.<.<.<.<.<.<.<.<.&.i N N N N N N N N N N N N N N N A                                                             ",
"                                                          :.<.<.<.<.<.<.<.<.<.<.<.<.<.<.<.<.<.<.<.<.<.<.<.<.<.<.<.<.<.<.1.Q.qXwXwXF.I S G G G S G G G G G G G G G G G G G G G G G G G G G G G G G G G G G G G G G G G G G G G G G G G G G G G G G G G G G G G G G G G G G G G G G G G G G G G G G G G G G G G G G G G G G G G G G G G G G G G G G G G G G G G G G G G G G G G G G G G S S G S P G.<Xj.<.<.<.<.<.<.<.<.<.<.<.<.<.<.0.f N N N N N N N N N N N N N N B                                                             ",
"                                                          <.<.<.<.<.<.<.<.<.<.<.<.<.<.<.<.<.<.<.<.<.<.<.<.<.<.<.<.<.<.1.Q.qXwXwXG.I S G G G G S G G G G G G G G G G G G G G G G G G G G G G G G G G G G G G G G G G G G G G G G G G G G G G G G G G G G G G G G G G G G G G G G G G G G G G G G G G G G G G G G G G G G G G G G G G G G G G G G G G G G G G G G G G G G G G G G G G S G G G G S P D.<XJ.<.<.<.<.<.<.<.<.<.<.<.<.<.<.8.g N N N N N N N N N N N N N N B                                                           ",
"                                                        <.<.<.<.<.<.<.<.<.<.<.<.<.<.<.<.<.<.<.<.<.<.<.<.<.<.<.<.<.<.<.T.qXwXwXG.P S S S S G G G G G G G G G G G G G G G G G G G G G G G G G G G G G G G G G G G G G G G G G G G G G G G G G G G G G G G G G G G G G G G G G G G G G G G G G G G G G G G G G G G G G G G G G G G G G G G G G G G G G G G G G G G G G G G G G G G G G G G G S G G S P D.<Xj.<.<.<.<.<.<.<.<.<.<.<.<.<.:.5 z N N N N N N N N N N N N N N A                                                         ",
"                                                        <.<.<.<.<.<.<.<.<.<.<.<.<.<.<.<.<.<.<.<.<.<.<.<.<.<.<.<.<.<.L.0XwXwXF.I S S S S G G G G G G G G G G G G G G G G G G G G G G G G G G G G G G G G G G G G G G G G G G G G G G G G G G G G G G G G G G G G G G G G G G G G G G G G G G G G G G G G G G G G G G G G G G G G G G G G G G G G G G G G G G G G G G G G G G G G G G G G G S G G G S P G.:Xs.<.<.<.<.<.<.<.<.<.<.<.<.<.2.r B N N N N N N N N N N N N N B                                                         ",
"                                                      <.<.<.<.<.<.<.<.<.<.<.<.<.<.<.<.<.<.<.<.<.<.<.<.<.<.<.<.<.<.J.6XwXwX|.I S S S S S G G G G G G G G G G G G G G G G G G G G G G G G G G G G G G G G G G G G G G G G G G G G G G G G G G G G G G G G G G G G G G G G G G G G G G G G G G G G G G G G G G G G G G G G G G G G G G G G G G G G G G G G G G G G G G G G G G G G G G G G G G S S G S S P G.:Xp.<.<.<.<.<.<.<.<.<.<.<.<.<.*.v N N N N N N N N N N N N N N B                                                       ",
"                                                    :.<.<.<.<.<.<.<.<.<.<.<.<.<.<.<.<.<.<.<.<.<.<.<.<.<.<.<.<.<.g.4XwXwX.XI S S S G G S G G G G G G G G G G G G G G G G G G G G G G G G G G G G G G G G G G G G G G G G G G G G G G G G G G G G G G G G G G G G G G G G G G G G G G G G G G G G G G G G G G G G G G G G G G G G G G G G G G G G G G G G G G G G G G G G G G G G G G G G G G G G G G S S I |.%Xr.<.<.<.<.<.<.<.<.<.<.<.<.<.8.g N N N N N N N N N N N N N N Z                                                     ",
"                                                    <.<.<.<.<.<.<.<.<.<.<.<.<.<.<.<.<.<.<.<.<.<.<.<.<.<.<.<.<.i.=XwXwXoXY S S S G G G G G G G G G G G G G G G G G G G G G G G G G G G G G G G G G G G G G G G G G G G G G G G G G G G G G G G G G G G G G G G G G G G G G G G G G G G G G G G G G G G G G G G G G G G G G G G G G G G G G G G G G G G G G G G G G G G G G G G G G G G G G G G G G G G G S T 1X).3.<.<.<.<.<.<.<.<.<.<.<.<.:.9 B N N N N N N N N N N N N N B                                                     ",
"                                                  :.<.<.<.<.<.<.<.<.<.<.<.<.<.<.<.<.<.<.<.<.<.<.<.<.<.<.<.<.e.#XwXwX1Xm.S S G G S G G G G G G G G G G G G G G G G G G G G G G G G G G G G G G G G G G G G G G G G G G G G G G G G G G G G G G G G G G G G G G G G G G G G G G G G G G G G G G G G G G G G G G G G G G G G G G G G G G G G G G G G G G G G G G G G G G G G G G G G G G G G G G G G S G S P S.9XqXQ.<.<.<.<.<.<.<.<.<.<.<.<.<.&.y N N N N N N N N N N N N N N A                                                   ",
"                                                  <.<.<.<.<.<.<.<.<.<.<.<.<.<.<.<.<.<.<.<.<.<.<.<.<.<.<.<.1.!.wXwX2XB.G S G G G S G G G G G G G G G G G G G G G G G G G G G G G G G G G G G G G G G G G G G G G G G G G G G G G G G G G G G G G G G G G G G G G G G G G G G G G G G G G G G G G G G G G G G G G G G G G G G G G G G G G G G G G G G G G G G G G G G G G G G G G G G G G G G G G G S S I F.wXwXwX0XP.<.<.<.<.<.<.<.<.<.<.<.<.<.7.g N N N N N N N N N N N N N B                                                   ",
"                                                <.<.<.<.<.<.<.<.<.<.<.<.<.<.<.<.<.<.<.<.<.<.<.<.<.<.<.<.<.K.0XwX9XA.G S G S S S G G G G G G G G G G G G G G G G G G G G G G G G G G G G G G G G G G G G G G G G G G G G G G G G G G G G G G G G G G G G G G G G G G G G G G G G G G G G G G G G G G G G G G G G G G G G G G G G G G G G G G G G G G G G G G G G G G G G G G G G G G G G G G G G S S Y .XwXwXwXwXwX4Xd.,.<.<.<.<.<.<.<.<.<.<.<.:.9 B N N N N N N N N N N N N N A                                                 ",
"                                                <.<.<.<.<.<.<.<.<.<.<.<.<.<.<.<.<.<.<.<.<.<.<.<.<.<.<.,.g.4XwXwXG.P S S S G G G G G G G G G G G G G G G G G G G G G G G G G G G G G G G G G G G G G G G G G G G G G G G G G G G G G G G G G G G G G G G G G G G G G G G G G G G G G G G G G G G G G G G G G G G G G G G G G G G G G G G G G G G G G G G G G G G G G G G G G G G G G G G G G G S G m.OXwXwXwXwXwXwXwX%X3.<.<.<.<.<.<.<.<.<.<.<.<.*.c N N N N N N N N N N N N N B                                                 ",
"                                              <.<.<.<.<.<.<.<.<.<.<.<.<.<.<.<.<.<.<.<.<.<.<.<.<.<.<.<.y.%XwXwXoXW S G S S G G G G G G G G G G G G G G G G G G G G G G G G G G G G G G G G G G G G G G G G G G G G G G G G G G G G G G G G G G G G G G G G G G G G G G G G G G G G G G G G G G G G G G G G G G G G G G G G G G G G G G G G G G G G G G G G G G G G G G G G G G G G G G G G G S G M.1XwXwXwXwXwXwXwXwXwX!.1.<.<.<.<.<.<.<.<.<.<.<.<.8.x N N N N N N N N N N N N N B                                               ",
"                                            :.<.<.<.<.<.<.<.<.<.<.<.<.<.<.<.<.<.<.<.<.<.<.<.<.<.<.<.<.!.wXwX3Xm.S S G G G G G G G G G G G G G G G G G G G G G G G G G G G G G G G G G G G G G G G G G G G G G G G G G G G G G G G G G G G G G G G G G G G G G G G G G G G G G G G G G G G G G G G G G G G G G G G G G G G G G G G G G G G G G G G G G G G G G G G G G G G G G G G S G G S S G V.3XwXwXwXwXwXwXwXwXwXwX0XJ.<.<.<.<.<.<.<.<.<.<.<.<.>.r N N N N N N N N N N N N N B                                               ",
"                                            <.<.<.<.<.<.<.<.<.<.<.<.<.<.<.<.<.<.<.<.<.<.<.<.<.<.<.<.z.7XwX9XA.G S G S S G G G G G G G G G G G G G G G G G G G G G G G G G G G G G G G G G G G G G G G G G G G G G G G G G G G G G G G G G G G G G G G G G G G G G G G G G G G G G G G G G G G G G G G G G G G G G G G G G G G G G G G G G G G G G G G G G G G G G G G G G G G G G S G S S P S.9XwXwXwXwXwXwXwXwXwXwXwXwX-Xi.<.<.<.<.<.<.<.<.<.<.<.<.0.h N N N N N N N N N N N N N B                                             ",
"                                          :.<.<.<.<.<.<.<.<.<.<.<.<.<.<.<.<.<.<.<.<.<.<.<.<.<.<.<.t.=XwXwX|.P S G G G G G G G G G G G G G G G G G G G G G G G G G G G G G G G G G G G G G G G G G G G G G G G G G G G G G G G G G G G G G G G G G G G G G G G G G G G G G G G G G G G G G G G G G G G G G G G G G G G G G G G G G G G G G G G G G G G G G G G G G G G G G G G S S S S S I G.9XwXwXwXwXwXwXwXwXwXwXwXwXwXwX).1.<.<.<.<.<.<.<.<.<.<.<.:.9 B N N N N N N N N N N N N B                                             ",
"                                          :.<.<.<.<.<.<.<.<.<.<.<.<.<.<.<.<.<.<.<.<.<.<.<.<.<.<.<.^.wXwX1XR S S G G G G G G G G G G G G G G G G G G G G G G G G G G G G G G G G G G G G G G G G G G G G G G G G G G G G G G G G G G G G G G G G G G G G G G G G G G G G G G G G G G G G G G G G G G G G G G G G G G G G G G G G G G G G G G G G G G G G G G G G G G G G G G G S S S S Y  XwXwXwXwXwXwXwXwXwXwXwXwXwXwXwXwX0XP.<.<.<.<.<.<.<.<.<.<.<.<.*.d N N N N N N N N N N N N N B                                           ",
"                                          <.<.<.<.<.<.<.<.<.<.<.<.<.<.<.<.<.<.<.<.<.<.<.<.<.<.<.j.7XwX9XV.G S S G G G G G G G G G G G G G G G G G G G G G G G G G G G G G G G G G G G G G G G G G G G G G G G G G G G G G G G G G G G G G G G G G G G G G G G G G G G G G G G G G G G G G G G G G G G G G G G G G G G G G G G G G G G G G G G G G G G G G G G G G G G G S G S S S G R oXwXwXwXwXwXwXwXwXwXwXwXwXwXwXwXwXwXwX-Xt.<.<.<.<.<.<.<.<.<.<.<.<.5 V N N N N N N N N N N N N B                                           ",
"                                        <.<.<.<.<.<.<.<.<.<.<.<.<.<.<.<.<.<.<.<.<.<.<.<.<.<.<.r.$XwXwX|.P S S G G G G G G G G G G G G G G G G G G G G G G G G G G G G G G G G G G G G G G G G G G G G G G G G G G G G G G G G G G G G G G G G G G G G G G G G G G G G G G G G G G G G G G G G G G G G G G G G G G G G G G G G G G G G G G G G G G G G G G G G G G G G S S S S S G N.OXwXwXwXwXwXwXwXwXwXwXwXwXwXwXwXwXwXwXwXwX!.<.<.<.<.<.<.<.<.<.<.<.<.&.c N N N N N N N N N N N N N A                                         ",
"                                        <.<.<.<.<.<.<.<.<.<.<.<.<.<.<.<.<.<.<.<.<.<.<.<.<.<.<.Y.wXwX3XR S S G G G G G G G G G G G G G G G G G G G G G G G G G G G G G G G G G G G G G G G G G G G G G G G G G G G G G G G G G G G G G G G G G G G G G G G G G G G G G G G G G G G G G G G G G G G G G G G G G G G G G G G G G G G G G G G G G G G G G G G G G G G G G S S G S G V.3XwXwXwXwXwXwXwXwXwXwXwXwXwXwXwXwXwXwXwXwXwX7Xh.;.<.<.<.<.<.<.<.<.<.<.<.x.V N N N N N N N N N N N N B                                         ",
"                                      :.<.<.<.<.<.<.<.<.<.<.<.<.<.<.<.<.<.<.<.<.<.<.<.<.<.<.i.4XwXwXA.G S G G G G G G G G G G G G G G G G G G G G G G G G G G G G G G G G G G G G G G G G G G G G G G G G G G G G G G G G G G G G G G G G G G G G G G G G G G G G G G G G G G G G G G G G G G G G G G G G G G G G G G G G G G G G G G G G G G G G G G G G G G G G S S S S S P A.2XwXwXwXwXwXwXwXwXwXwXwXwXwXwXwXwXwXwXwXwXwXwXwX#X3.<.<.<.<.<.<.<.<.<.<.<.&.y N N N N N N N N N N N N N A                                       ",
"                                      <.<.<.<.<.<.<.<.<.<.<.<.<.<.<.<.<.<.<.<.<.<.<.<.<.<.<./.wXwXoXI S S G G G G G G G G G G G G G G G G G G G G G G G G G G G G G G G G G G G G G G G G G G G G G G G G G G G G G G G G G G G G G G G G G G G G G G G G G G G G G G G G G G G G G G G G G G G G G G G G G G G G G G G G G G G G G G G G G G G G G G G G G G G G S S G S P D.9XwXwXwXwXwXwXwXwXwXwXwXwXwXwXwXwXwXwXwXwXwXwXwXwXqXP.,.<.<.<.<.<.<.<.<.<.<.<.x.V N N N N N N N N N N N N B                                       ",
"                                    :.<.<.<.<.<.<.<.<.<.<.<.<.<.<.<.<.<.<.<.<.<.<.<.<.<.<.g.6XwX9XB.G G G S G G G G G G G G G G G G G G G G G G G G G G G G G G G G G G G G G G G G G G G G G G G G G G G G G G G G G G G G G G G G G G G G G G G G G G G G G G G G G G G G G G G G G G G G G G G G G G G G G G G G G G G G G G G G G G G G G G G G G G G G G G S S S S Y |.wXwXwXwXwXwXwXwXwXwXwXwXwXwXwXwXwXwXwXwXwXwXwXwXwXwXwX*Xe.<.<.<.<.<.<.<.<.<.<.<.&.v N N N N N N N N N N N N N                                       ",
"                                    <.<.<.<.<.<.<.<.<.<.<.<.<.<.<.<.<.<.<.<.<.<.<.<.<.<.1._.wXwX XP S G G S G G G G G G G G G G G G G G G G G G G G G G G G G G G G G G G G G G G G G G G G G G G G G G G G G G G G G G G G G G G G G G G G G G G G G G G G G G G G G G G G G G G G G G G G G G G G G G G G G G G G G G G G G G G G G G G G G G G G G G G G G G S S G T XXwXwXwXwXwXwXwXwXwXwXwXwXwXwXwXwXwXwXwXwXwXwXwXwXwXwXwXwXqXY.<.<.<.<.<.<.<.<.<.<.<.<.5 B N N N N N N N N N N N N B                                     ",
"                                    <.<.<.<.<.<.<.<.<.<.<.<.<.<.<.<.<.<.<.<.<.<.<.<.<.<.j.0XwX2XM.S S S S G G G G G G G G G G G G G G G G G G G G G G G G G G G G G G G G G G G G G G G G G G G G G G G G G G G G G G G G G G G G G G G G G G G G G G G G G G G G G G G G G G G G G G G G G G G G G G G G G G G G G G G G G G G G G G G G G G G G G G G G G G G S G N.OXwXwXwXwXwXwXwXwXwXwXwXwXwXwXwXwXwXwXwXwXwXwXwXwXwXwXwXwXwXwX-Xt.<.<.<.<.<.<.<.<.<.<.<.4.d N N N N N N N N N N N N B                                     ",
"                                  <.<.<.<.<.<.<.<.<.<.<.<.<.<.<.<.<.<.<.<.<.<.<.<.<.<.1.#XwXwX|.P S G G G G G G G G G G G G G G G G G G G G G G G G G G G G G G G G G G G G G G G G G G G G G G G G G G G G G G G G G G G G G G G G G G G G G G G G G G G G G G G G G G G G G G G G G G G G G G G G G G G G G G G G G G G G G G G G G G G G G G G G G G G G G S G B.3XwXwXwXwXwXwXwXwXwXwXwXwXwXwXwXwXwXwXwXwXwXwXwXwXwXwXwXwXwXwXwXwXY.<.<.<.<.<.<.<.<.<.<.<.<.9 B N N N N N N N N N N N N A                                   ",
"                                  <.<.<.<.<.<.<.<.<.<.<.<.<.<.<.<.<.<.<.<.<.<.<.<.<.<.j.0XwX2XN.S S G G G G G G G G G G G G G G G G G G G G G G G G G G G G G G G G G G G G G G G G G G G G G G G G G G G G G G G G G G G G G G G G G G G G G G G G G G G G G G G G G G G G G G G G G G G G G G G G G G G G G G G G G G G G G G G G G G G G G G G G G G G S S P A.2XwXwXwXwXwXwXwXwXwXwXwXwXwXwXwXwXwXwXwXwXwXwXwXwXwXwXwXwXwXwXwXwXwX=Xr.<.<.<.<.<.<.<.<.<.<.<.q.g N N N N N N N N N N N N B                                   ",
"                                :.<.<.<.<.<.<.<.<.<.<.<.<.<.<.<.<.<.<.<.<.<.<.<.<.<.1._.wXwXF.G S G S G G G G G G G G G G G G G G G G G G G G G G G G G G G G G G G G G G G G G G G G G G G G G G G G G G G G G G G G G G G G G G G G G G G G G G G G G G G G G G G G G G G G G G G G G G G G G G G G G G G G G G G G G G G G G G G G G G G G G G G S G G S P S.9XwXwXwXwXwXwXwXwXwXwXwXwXwXwXwXwXwXwXwXwXwXwXwXwXwXwXwXwXwXwXwXwXwXwXqXI.<.<.<.<.<.<.<.<.<.<.<.>.r N N N N N N N N N N N N B                                   ",
"                                <.<.<.<.<.<.<.<.<.<.<.<.<.<.<.<.<.<.<.<.<.<.<.<.<.,.g.7XwX9XN.S S S G G G G G G G G G G G G G G G G G G G G G G G G G G G G G G G G G G G G G G G G G G G G G G G G G G G G G G G G G G G G G G G G G G G G G G G G G G G G G G G G G G G G G G G G G G G G G G G G G G G G G G G G G G G G G G G G G G G G G G G S G G S I F.wXwXwXwXwXwXwXwXwXwXwXwXwXwXwXwXwXwXwXwXwXwXwXwXwXwXwXwXwXwXwXwXwXwXwXwXwX=Xr.<.<.<.<.<.<.<.<.<.<.<.8.z N N N N N N N N N N N N B                                 ",
"                                <.<.<.<.<.<.<.<.<.<.<.<.<.<.<.<.<.<.<.<.<.<.<.<.<.<.^.wXwX XP S S G G G G G G G G G G G G G G G G G G G G G G G G G G G G G G G G G G G G G G G G G G G G G G G G G G G G G G G G G G G G G G G G G G G G G G G G G G G G G G G G G G G G G G G G G G G G G G G G G G G G G G G G G G G G G G G G G G G G G G G G G S S Y .XwXwXwXwXwXwXwXwXwXwXwXwXwXwXwXwXwXwXwXwXwXwXwXwXwXwXwXwXwXwXwXwXwXwXwXwXwXwXqXJ.;.<.<.<.<.<.<.<.<.<.<.&.v N N N N N N N N N N N N B                                 ",
"                              :.<.<.<.<.<.<.<.<.<.<.<.<.<.<.<.<.<.<.<.<.<.<.<.<.<.i.4XwX9XM.S S S G G G G G G G G G G G G G G G G G G G G G G G G G G G G G G G G G G G G G G G G G G G G G G G G G G G G G G G G G G G G G G G G G G G G G G G G G G G G G G G G G G G G G G G G G G G G G G G G G G G G G G G G G G G G G G G G G G G G G G S G S G m.oXwXwXwXwXwXwXwXwXwXwXwXwXwXwXwXwXwXwXwXwXwXwXwXwXwXwXwXwXwXwXwXwXwXwXwXwXwXwXwXwX#X3.<.<.<.<.<.<.<.<.<.<.:.9 B N N N N N N N N N N N N                                 ",
"                              <.<.<.<.<.<.<.<.<.<.<.<.<.<.<.<.<.<.<.<.<.<.<.<.<.<.T.wXwXoXP G G G G G G G G G G G G G G G G G G G G G G G G G G G G G G G G G G G G G G G G G G G G G G G G G G G G G G G G G G G G G G G G G G G G G G G G G G G G G G G G G G G G G G G G G G G G G G G G G G G G G G G G G G G G G G G G G G G G G G G G G G S G M.1XwXwXwXwXwXwXwXwXwXwXwXwXwXwXwXwXwXwXwXwXwXwXwXwXwXwXwXwXwXwXwXwXwXwXwXwXwXwXwXwXwX0Xh.,.<.<.<.<.<.<.<.<.<.<.5.g N N N N N N N N N N N N B                               ",
"                              <.<.<.<.<.<.<.<.<.<.<.<.<.<.<.<.<.<.<.<.<.<.<.<.<.3.*XwXwXA.G S G S G G G G G G G G G G G G G G G G G G G G G G G G G G G G G G G G G G G G G G G G G G G G G G G G G G G G G G G G G G G G G G G G G G G G G G G G G G G G G G G G G G G G G G G G G G G G G G G G G G G G G G G G G G G G G G G G G G G G G G S G V.3XwXwXwXwXwXwXwXwXwXwXwXwXwXwXwXwXwXwXwXwXwXwXwXwXwXwXwXwXwXwXwXwXwXwXwXwXwXwXwXwXwXwXwX/.<.<.<.<.<.<.<.<.<.<.<.2.y N N N N N N N N N N N N B                               ",
"                            <.<.<.<.<.<.<.<.<.<.<.<.<.<.<.<.<.<.<.<.<.<.<.<.<.<.J.qXwX3XY S S S G G G G G G G G G G G G G G G G G G G G G G G G G G G G G G G G G G G G G G G G G G G G G G G G G G G G G G G G G G G G G G G G G G G G G G G G G G G G G G G G G G G G G G G G G G G G G G G G G G G G G G G G G G G G G G G G G G G S G G S P S.9XwXwXwXwXwXwXwXwXwXwXwXwXwXwXwXwXwXwXwXwXwXwXwXwXwXwXwXwXwXwXwXwXwXwXwXwXwXwXwXwXwXwXwXwX4Xt.<.<.<.<.<.<.<.<.<.<.<.8 B N N N N N N N N N N N N                               ",
"                            :.<.<.<.<.<.<.<.<.<.<.<.<.<.<.<.<.<.<.<.<.<.<.<.<.<.(.wXwXG.G S G G G G G G G G G G G G G G G G G G G G G G G G G G G G G G G G G G G G G G G G G G G G G G G G G G G G G G G G G G G G G G G G G G G G G G G G G G G G G G G G G G G G G G G G G G G G G G G G G G G G G G G G G G G G G G G G G G G G G G S S I G.9XwXwXwXwXwXwXwXwXwXwXwXwXwXwXwXwXwXwXwXwXwXwXwXwXwXwXwXwXwXwXwXwXwXwXwXwXwXwXwXwXwXwXwXwXwXwXK.;.<.<.<.<.<.<.<.<.<.<.5.g N N N N N N N N N N N N A                             ",
"                            :.<.<.<.<.<.<.<.<.<.<.<.<.<.<.<.<.<.<.<.<.<.<.<.<.i.4XwX9XM.S G S G G G G G G G G G G G G G G G G G G G G G G G G G G G G G G G G G G G G G G G G G G G G G G G G G G G G G G G G G G G G G G G G G G G G G G G G G G G G G G G G G G G G G G G G G G G G G G G G G G G G G G G G G G G G G G G G G G G G S S Y  XwXwXwXwXwXwXwXwXwXwXwXwXwXwXwXwXwXwXwXwXwXwXwXwXwXwXwXwXwXwXwXwXwXwXwXwXwXwXwXwXwXwXwXwXwXwXwXwX_.1.<.<.<.<.<.<.<.<.<.<.>.y N N N N N N N N N N N N A                             ",
"                            <.<.<.<.<.<.<.<.<.<.<.<.<.<.<.<.<.<.<.<.<.<.<.<.<.L.wXwXoXI S G G G G G G G G G G G G G G G G G G G G G G G G G G G G G G G G G G G G G G G G G G G G G G G G G G G G G G G G G G G G G G G G G G G G G G G G G G G G G G G G G G G G G G G G G G G G G G G G G G G G G G G G G G G G G G G G G G G S G S G R oXwXwXwXwXwXwXwXwXwXwXwXwXwXwXwXwXwXwXwXwXwXwXwXwXwXwXwXwXwXwXwXwXwXwXwXwXwXwXwXwXwXwXwXwXwXwXwXwXwX7Xs.<.<.<.<.<.<.<.<.<.<.<.9 B N N N N N N N N N N N B                             ",
"                          :.<.<.<.<.<.<.<.<.<.<.<.<.<.<.<.<.<.<.<.<.<.<.<.<.1.[.wXwXD.G S G G G G G G G G G G G G G G G G G G G G G G G G G G G G G G G G G G G G G G G G G G G G G G G G G G G G G G G G G G G G G G G G G G G G G G G G G G G G G G G G G G G G G G G G G G G G G G G S G G G G G G G G G G G G G G G G G G G G S G M.OXwXwXwXwXwXwXwXwXwXwXwXwXwXwXwXwXwXwXwXwXwXwXwXwXwXwXwXwXwXwXwXwXwXwXwXwXwXwXwXwXwXwXwXwXwXwXwXwXwXwXwXI.<.<.<.<.<.<.<.<.<.<.<.7.x N N N N N N N N N N N N                             ",
"                          :.<.<.<.<.<.<.<.<.<.<.<.<.<.<.<.<.<.<.<.<.<.<.<.<.r.4XwX2Xm.S S G G G G G G G G G G G G G G G G G G G G G G G G G G G G G G G G G G G G G G G G G G S S G G G G G G G G G G G G G G G G G G G G G G G G S S S S G G G G G S G G G G G G G G G G S S G G G G G S G G G G G G G G G G G G G G G G G G S S G V.3XwXwXwXwXwXwXwXwXwXwXwXwXwXwXwXwXwXwXwXwXwXwXwXwXwXwXwXwXwXwXwXwXwXwXwXwXwXwXwXwXwXwXwXwXwXwXwXwXwXwXwXwX#X1.<.<.<.<.<.<.<.<.<.<.&.d N N N N N N N N N N N N A                           ",
"                          <.<.<.<.<.<.<.<.<.<.<.<.<.<.<.<.<.<.<.<.<.<.<.<.<.L.wXwXoXP S S S S S S S S S S S S S S S S S S S S G G G G G S S S S S S S S S S S S G G G G G S S S S S S S G S S S S S S S S S S S S S S G G G G G G G G S S S S S S S G S S S S S S S S S S S G S G S G G G S S S S S S S S S S S S S S S S S S S P A.9XwXwXwXwXwXwXwXwXwXwXwXwXwXwXwXwXwXwXwXwXwXwXwXwXwXwXwXwXwXwXwXwXwXwXwXwXwXwXwXwXwXwXwXwXwXwXwXwXwXwXwXwXwX4Xu.<.<.<.<.<.<.<.<.<.<.:.e N N N N N N N N N N N N B                           ",
"                          <.<.<.<.<.<.<.<.<.<.<.<.<.<.<.<.<.<.<.<.<.<.<.<.1.).wXwXS.G J G G G G G G G G G G G G G G G G J J J S S S G G S S G G G G G G G G G G S G G G S G G G G G G G G G G G J J G G G G G G J J G G S G G G S G G J G G G G G G G G G G G G G G G J J G G S S S S S H J J J J J G G G G G G G G G G G G S P G.9XwXwXwXwXwXwXwXwXwXwXwXwXwXwXwXwXwXwXwXwXwXwXwXwXwXwXwXwXwXwXwXwXwXwXwXwXwXwXwXwXwXwXwXwXwXwXwXwXwXwXwXwXwXwXwXY.,.<.<.<.<.<.<.<.<.<.<.x.V N N N N N N N N N N N B                           ",
"                        :.<.<.<.<.<.<.<.<.<.<.<.<.<.<.<.<.<.<.<.<.<.<.<.<.y.-XwX9XM.D 3 , , , , , , , , , , , , , , , , 1 3 y K G S S G S J v , , , , , , , r G S G G G S G t , , , , , , , v j 1 , , , , , , , , i G S G G G G S G y , , , , , , , , 1 d n 1 , , , , , , 3 D S S S H G m u 2 1 , , , , , , , , , , , , , q Y |.6XT.L.L.L.L.L.L.L.L.L.L.L.L.L.L.T.(.-XqXwXwXwXwXwXwXwXwXqX!.L.L.L.L.L.L.Y.5XwXwXwXwX4XY.L.L.L.L.L.L.L.!.qXwXwXwXwX).<.<.<.<.<.<.<.<.<.<.<.q.g N N N N N N N N N N N N                           ",
"                        <.<.<.<.<.<.<.<.<.<.<.<.<.<.<.<.<.<.<.<.<.<.<.<.<.g.0XwXOXW j @ ~ ~ ~ ~ ~ ~ ~ ~ ~ ~ ~ ~ ~ ~ ~ ~ ~ ~ ` % 3 D G S S J 2 ^ ~ ~ ~ ~ ~ ~ * F S G G G S F ; ~ ~ ~ ~ ~ ~ ^ 1 K % ~ ~ ~ ~ ~ ~ ~ ~ $ b J G G S S H n % ~ ~ ~ ~ ~ ~ ~ ~ % n s ` ~ ~ ~ ~ ~ ~ $ K H G J m , # / ~ ~ ~ ~ ~ ~ ~ ~ ~ ~ ~ ~ ~ ~ ~ =.@XwX>X .( ~ ~ ~ ~ ~ ~ ~ ~ ~ ~ ~ ~ ~ ~ ) ..i.(.0XwXwXwXwXwXwX6X+.( ( ~ ~ ~ ( } %XwXwXwX0Xp.~ ( ~ ~ ~ ~ ( ' Y.qXwXwXwXwX-Xt.<.<.<.<.<.<.<.<.<.<.&.v N N N N N N N N N N N N B                         ",
"                        <.<.<.<.<.<.<.<.<.<.<.<.<.<.<.<.<.<.<.<.<.<.<.<.<.T.wXwXF.G j O ( ( ( ( ( ( ( ( ( ( ( ( ( ( ( ( ( ( ( ( ` > D H S J 1 ~ ( ( ( ( ( ( * F S G G G S F & ( ( ( ( ( ( ~ 1 J i o ( ( ( ( ( ( ( ~ : F S G G S G : ~ ( ( ( ( ( ( ( . u J s ` ( ( ( ( ( ( # K H J n = ^ ( ( ( ( ( ( ( ( ( ( ( ( ( ( ( ( ( <.0XwX>X{ ( ( ( ( ( ( ( ( ( ( ( ( ( ( ( ( ( ( ' t.*XwXwXwXwXwX6XO.( ( ( ( ( ( } %XwXwXwXI./ ( ( ( ( ( ( ~ h.0XwXwXwXwXwX0Xg.;.<.<.<.<.<.<.<.<.<.:.p N N N N N N N N N N N N B                         ",
"                        <.<.<.<.<.<.<.<.<.<.<.<.<.<.<.<.<.<.<.<.<.<.<.<.1.#XwXwXA.S m O ( ( ( ( ( ( ( ( ( ( ( ( ( ( ( ( ( ( ( ( ( / , G S J 1 ~ ( ( ( ( ( ( * F S G G G S F & ( ( ( ( ( ( ~ 1 J G 1 / ( ( ( ( ( ( ( . i J S S J v o ( ( ( ( ( ( ( ^ , F J s ` ( ( ( ( ( ( # K H D ; ~ ( ( ( ( ( ( ( ( ( ( ( ( ( ( ( ( ( ( 1.0XwX>X{ ( ( ( ( ( ( ( ( ( ( ( ( ( ( ( ( ( ( ( ( O._.wXwXwXwX6XO.( ( ( ( ( ( } %XwXwX'. .( ( ( ( ( ( ( 3.6XwXwXwXwXwXwXwXT.;.<.<.<.<.<.<.<.<.<.<.5 B N N N N N N N N N N N B                         ",
"                        <.<.<.<.<.<.<.<.<.<.<.<.<.<.<.<.<.<.<.<.<.<.<.<.t.4XwX2Xm.H m O ( ( ( ( ( ( ( ( ( ( ( ( ( ( ( ( ( ( ( ( ( ( o v H J 1 ~ ( ( ( ( ( ( * F S G G G S F & ( ( ( ( ( ( ~ 1 J H K = ( ( ( ( ( ( ( ( = U H S D & ~ ( ( ( ( ( ( ( - K H J s ` ( ( ( ( ( ( # K J r ` ( ( ( ( ( ( ( ( ( ( ( ( ( ( ( ( ( ( ( 1.0XwX>X{ ( ( ( ( ( ( ( ( ( ( ( ( ( ( ( ( ( ( ( ( ( X.%XwXwXwX6XO.( ( ( ( ( ( } %XwX;X;.( ( ( ( ( ( ( O.*XwXwXwXwXwXwXwXwX#X1.<.<.<.<.<.<.<.<.<.<.7.z N N N N N N N N N N N B                         ",
"                      :.<.<.<.<.<.<.<.<.<.<.<.<.<.<.<.<.<.<.<.<.<.<.<.,.g.0XwXOXI H m O ( ( ( ( ( ( ( ( ( ( ( ( ( ( ( ( ( ( ( ( ( ( ^ 2 J J 1 ~ ( ( ( ( ( ( * F S G G G S F & ( ( ( ( ( ( ~ 1 J S J v O ( ( ( ( ( ( ( / 4 G J e ` ( ( ( ( ( ( ( o y J S J s ` ( ( ( ( ( ( # K G > ~ ( ( ( ( ( ( ( ( ( ( ( ( ( ( ( ( ( ( ~ <.0XwX>X{ ( ( ( ( ( ( ( ( ( ( ( ( ( ( ( ( ( ( ( ( ( ( <.4XwXwX5XO.( ( ( ( ( ( } %X0Xs.~ ( ( ( ( ( (  .).wXwXwXwXwXwXwXwXwX;Xr.<.<.<.<.<.<.<.<.<.<.4.j N N N N N N N N N N N B                         ",
"                      :.<.<.<.<.<.<.<.<.<.<.<.<.<.<.<.<.<.<.<.<.<.<.<.;.T.wXwX|.G H m O ( ( ( ( ( ( ~ ] | | | | | | | / ( ( ( ( ( ( ( > F J 2 ~ ( ( ( ( ( ( * F S G G G S F & ( ( ( ( ( ( ~ 1 J S S G 4 ` ( ( ( ( ( ( ( $ n m # ( ( ( ( ( ( ( / 1 G S S J s ` ( ( ( ( ( ( # K D % ( ( ( ( ( ( ( / | | | | | | ..X.X.X.X.X.a.0XwX>X{ ( ( ( ( ( ( _ o.X.X.X.o.[ ) ( ( ( ( ( ( ( ( ~ P.wXwX6XO.( ( ( ( ( ( } %XT._ ( ( ( ( ( ( ' T.wXwXwXwXwXwXwXwXwXwX7Xs.,.<.<.<.<.<.<.<.<.<.2.y N N N N N N N N N N N N                         ",
"                      :.<.<.<.<.<.<.<.<.<.<.<.<.<.<.<.<.<.<.<.<.<.<.<.1.).wXwXA.G H m O ( ( ( ( ( ( ` 3 j j j n j j n > ~ ( ( ( ( ( ( * D J 2 ~ ( ( ( ( ( ( * F S G G G S F & ( ( ( ( ( ( ~ 1 J S S H D ; ~ ( ( ( ( ( ( ~ : : ^ ( ( ( ( ( ( ( = K H G G J s ` ( ( ( ( ( ( # K n + ( ( ( ( ( ( / 6 n j j j j L }.<X;X<X;X;X5XwXwX>X{ ( ( ( ( ( (  .%X<X<X<X-X%XR.<.) ( ( ( ( ( ( ( O.4XwX6XO.( ( ( ( ( ( [ P. .( ( ( ( ( ( ~ j.qXwXwXwXwXwXwXwXwXwXwXwXK.;.<.<.<.<.<.<.<.<.<.<.w N N N N N N N N N N N N A                       ",
"                      <.<.<.<.<.<.<.<.<.<.<.<.<.<.<.<.<.<.<.<.<.<.<.<.3.*XwX9XM.S H m O ( ( ( ( ( ( ` u G F F F F F F : ~ ( ( ( ( ( ( * D J 2 ~ ( ( ( ( ( ( * F S G G G S F & ( ( ( ( ( ( ~ 1 J S G S J b $ ( ( ( ( ( ( ( ` ` ( ( ( ( ( ( ( @ v J G G G J s ` ( ( ( ( ( ( # K n + ( ( ( ( ( ( / 7 F F F F T oXqXwXwXwXwXwXwXwXwX>X{ ( ( ( ( ( ( X.4XwXwXwXwXwXwX6Xg.) ( ( ( ( ( ( _ !.wX6XO.( ( ( ( ( ( _ { ( ( ( ( ( ( ( e.5XwXwXwXwXwXwXwXwXwXwXwXwX^.<.<.<.<.<.<.<.<.<.<.<.5 B N N N N N N N N N N N B                       ",
"                      <.<.<.<.<.<.<.<.<.<.<.<.<.<.<.<.<.<.<.<.<.<.<.<.i.4XwX3XR S H m O ( ( ( ( ( ( ~ # % % % % % % % ] ( ( ( ( ( ( ( > G J 1 ~ ( ( ( ( ( ( * F S G G G S F & ( ( ( ( ( ( ~ 1 J S S S S G e ` ( ( ( ( ( ( ( ( ( ( ( ( ( ( ` 3 G S G G S J s ` ( ( ( ( ( ( # K D % ( ( ( ( ( ( ( ] % % % % =.<.1.p.T.*XwXwXwXwXwX>X{ ( ( ( ( ( ( X.4XwXwXwXwXwXwXwX4X#.( ( ( ( ( ( ( j.wX6XO.( ( ( ( ( ( ( ( ( ( ( ( ( ( +.=XwXwXwXwXwXwXwXwXwXwXwXwXwX#X1.<.<.<.<.<.<.<.<.<.<.8.z N N N N N N N N N N N B                       ",
"                      <.<.<.<.<.<.<.<.<.<.<.<.<.<.<.<.<.<.<.<.<.<.<.<.h.0XwXOXI S H m O ( ( ( ( ( ( ( ( ( ( ( ( ( ( ( ( ( ( ( ( ( ( / 3 J J 1 ~ ( ( ( ( ( ( * F S G G G S F & ( ( ( ( ( ( ~ 1 J S S S G S F > ~ ( ( ( ( ( ( ( ( ( ( ( ( ~ ; D H S G G S J s ` ( ( ( ( ( ( # K G > ( ( ( ( ( ( ( ( ( ( ( ( ( ( ( ( ~  .J.5XwXwXwX>X{ ( ( ( ( ( ( X.4XwXwXwXwXwXwXwXwXP.( ( ( ( ( ( ( y.qX6XO.( ( ( ( ( ( ( ( ( ( ( ( (  ._.wXwXwXwXwXwXwXwXwXwXwXwXwXwX-X3.<.<.<.<.<.<.<.<.<.<.q.g N N N N N N N N N N N B                       ",
"                    :.<.<.<.<.<.<.<.<.<.<.<.<.<.<.<.<.<.<.<.<.<.<.<.;.K.qXwX|.G S H m O ( ( ( ( ( ( ( ( ( ( ( ( ( ( ( ( ( ( ( ( ( ( # n H J 1 ~ ( ( ( ( ( ( * F S G G G S F & ( ( ( ( ( ( ~ 1 J S G G G S J n % ( ( ( ( ( ( ( ( ( ( ( ( $ b J S G G G S J s ` ( ( ( ( ( ( # K J e ` ( ( ( ( ( ( ( ( ( ( ( ( ( ( ( ( ( ~ i.6XwXwX>X{ ( ( ( ( ( ( X.4XwXwXwXwXwXwXwXwX^._ ( ( ( ( ( ( $.7X6XO.( ( ( ( ( ( ( ( ( ( ( ( ( O.4XwXwXwXwXwXwXwXwXwXwXwXwXwXwX6Xa.<.<.<.<.<.<.<.<.<.<.*.d N N N N N N N N N N N B                       ",
"                    <.<.<.<.<.<.<.<.<.<.<.<.<.<.<.<.<.<.<.<.<.<.<.<.;.T.wXwXS.G S H m O ( ( ( ( ( ( ( ( ( ( ( ( ( ( ( ( ( ( ( ( ( . r G S J 1 ~ ( ( ( ( ( ( * F S G G G S F & ( ( ( ( ( ( ~ 1 J S G G G S G J u ] ( ( ( ( ( ( ( ( ( ( ` e J S G G G J S J s ` ( ( ( ( ( ( # K H K = ( ( ( ( ( ( ( ( ( ( ( ( ( ( ( ( ( ( ~ P.wXwX>X{ ( ( ( ( ( ( X.4XwXwXwXwXwXwXwXwX^._ ( ( ( ( ( ( +.7X6XO.( ( ( ( ( ( ( ( ( ( ( ( ( ~ j.qXwXwXwXwXwXwXwXwXwXwXwXwXwX0Xl.<.<.<.<.<.<.<.<.<.<.&.c N N N N N N N N N N N N                       ",
"                    <.<.<.<.<.<.<.<.<.<.<.<.<.<.<.<.<.<.<.<.<.<.<.<.;.W.wXwXV.S S J m O ( ( ( ( ( ( ( ( ( ( ( ( ( ( ( ( ( ( ( ( o 3 F S S J 1 ~ ( ( ( ( ( ( * F S G G S S F & ( ( ( ( ( ( ~ 1 J S G G G G S S F 0 ^ ( ( ( ( ( ( ( ( ~ : F S G S G G G S J s ` ( ( ( ( ( ( # K H G v $ ( ( ( ( ( ( ( ( ( ( ( ( ( ( ( ( ( ( O.-XwX>X{ ( ( ( ( ( ( X.4XwXwXwXwXwXwXwXwXE.) ( ( ( ( ( ( 1.0X6XO.( ( ( ( ( ( ( ( ( ( ( ( ( ( [ ).wXwXwXwXwXwXwXwXwXwXwXwXwXwXK.;.<.<.<.<.<.<.<.<.<.>.i C N N N N N N N N N N N Z                     ",
"                    :.<.<.<.<.<.<.<.<.<.<.<.<.<.<.<.<.<.<.<.<.<.<.<.3.$XwX9XM.S G H m O ( ( ( ( ( ( ( ( ( ( ( ( ( ( ( ( ( ( / = y G S G S J 4 ^ ( ( ( ( ( ( - D S G G S S D * ( ( ( ( ( ( ~ 1 J S S G G G G S H K % ( ( ( ( ( ( ( ( % n H G G S G G G S J s ` ( ( ( ( ( ( # K H G G b ; X ~ ( ( ( ( ( ( ( ( ( ( ( ( ( ( ( _ (.wX>X{ ( ( ( ( ( ( X.4XwXwXwXwXwXwXwXqXi.( ( ( ( ( ( ~ s.wX6XO.( ( ( ( ( ( ( ( ( ( ( ( ( ( ( #.-XwXwXwXwXwXwXwXwXwXwXwXwXwXU.;.<.<.<.<.<.<.<.<.<.:.p N N N N N N N N N N N N Z                     ",
"                    <.<.<.<.<.<.<.<.<.<.<.<.<.<.<.<.<.<.<.<.<.<.<.<.y.4XwX2XR S S H m O ( ( ( ( ( ( ) - ; ; * ` ( ( ( ( ( ( ` e J S S G S J e / ( ( ( ( ( ( O b H G G S H n O ( ( ( ( ( ( / 3 J S S G G G G G S J i ] ( ( ( ( ( ( ` a J S S S G G G G S J s ` ( ( ( ( ( ( # K H G G J D i v.g.p.p.p.p.p.p.e.' ( ( ( ( ( ( ~ I.wX>X{ ( ( ( ( ( ( X.4XwXwXwXwXwXwXwX_.[ ( ( ( ( ( ( ( P.wX6XO.( ( ( ( ( ( ( ( ( ( ( ( ( ( ( ~ g.qXwXwXwXwXwXwXwXwXwXwXwXwXW.;.<.<.<.<.<.<.<.<.<.<.9 B N N N N N N N N N N N A                     ",
"                    <.<.<.<.<.<.<.<.<.<.<.<.<.<.<.<.<.<.<.<.<.<.<.<.i.6XwX1XY S G H m O ( ( ( ( ( ( ` u G G U = ( ( ( ( ( ( ( % K H S S G H y ` ( ( ( ( ( ( ~ : F J J J G 1 / ( ( ( ( ( ( ` y H S S G G G G G G H n O ( ( ( ( ( ( o M H G S G G G G G S J s ` ( ( ( ( ( ( # K H J J J J V.3XwXwXwXwXwXwXwXqXd.( ( ( ( ( ( ~ J.wX>X{ ( ( ( ( ( ( X.5XwXwXwXwXwXwX#X#.( ( ( ( ( ( ( [ #XwX6XO.( ( ( ( ( ( ( ( ( ( ( ( ( ( ( ( ' ^.wXwXwXwXwXwXwXwXwXwXwXwX[.1.<.<.<.<.<.<.<.<.<.<.c.B N N N N N N N N N N N B                     ",
"                    <.<.<.<.<.<.<.<.<.<.<.<.<.<.<.<.<.<.<.<.<.<.<.<.p.7XwXOXI S G H m O ( ( ( ( ( ( ` u J S J i . ( ( ( ( ( ( / 1 G S S S H n @ ( ( ( ( ( ( ( ` > i v y : ] ( ( ( ( ( ( ( @ n H G G S G G G G G H n O ( ( ( ( ( ( | M H S G G G G G G S J s ` ( ( ( ( ( ( # K J j v v H.{.$X$X$X$X$X$X$X$X#X1.( ( ( ( ( ( ( P.wX>X{ ( ( ( ( ( (  ._.$X$X$X$X_.z. .( ( ( ( ( ( ( ( r.0XwX6XO.( ( ( ( ( ( ( _ #._ ( ( ( ( ( ( ( O.=XwXwXwXwXwXwXwXwXwXwXwX,Xe.<.<.<.<.<.<.<.<.<.<.9.z N N N N N N N N N N N N                     ",
"                    <.<.<.<.<.<.<.<.<.<.<.<.<.<.<.<.<.<.<.<.<.<.<.,.g.0XwXoXP S S H m O ( ( ( ( ( ( ` u J S S F > ~ ( ( ( ( ( ( O v J S G S G : ~ ( ( ( ( ( ( ( ~ ` . ` ~ ( ( ( ( ( ( ( ~ : G S G G G G G G G G H n O ( ( ( ( ( ( | M H S G G G G G G S J s ` ( ( ( ( ( ( # K J < . ] [ [ [ [ [ [ [ [ [ [ } ~ ( ( ( ( ( ( ) Q.wX>X{ ( ( ( ( ( ( ~ [ [ [ [ [ ' ( ( ( ( ( ( ( ( ( [ _.wXwX6XO.( ( ( ( ( ( ( a.-X3.( ( ( ( ( ( ( ( s.0XwXwXwXwXwXwXwXwXwXwX5Xy.<.<.<.<.<.<.<.<.<.<.7.z N N N N N N N N N N N B                     ",
"                    <.<.<.<.<.<.<.<.<.<.<.<.<.<.<.<.<.<.<.<.<.<.<.,.l.qXwX.XP S G H m O ( ( ( ( ( ( ` u J G S H b O ( ( ( ( ( ( ~ ; D G G S J v o ( ( ( ( ( ( ( ( ( ( ( ( ( ( ( ( ( ( ( o v J G G G S G G G G G H n O ( ( ( ( ( ( | M H S G G G G G G S J s ` ( ( ( ( ( ( # K J : ~ ( ( ( ( ( ( ( ( ( ( ( ( ( ( ( ( ( ( (  .*XwX>X{ ( ( ( ( ( ( ( ( ( ( ( ( ( ( ( ( ( ( ( ( ( ) J.qXwXwX6XO.( ( ( ( ( ( ' #XwX#X .( ( ( ( ( ( ( _ R.wXwXwXwXwXwXwXwXwXwX6Xi.<.<.<.<.<.<.<.<.<.,.5.l N N N N N N N N N N N B                     ",
"                    <.<.<.<.<.<.<.<.<.<.<.<.<.<.<.<.<.<.<.<.<.<.<.;.P.qXwX|.G S S H m O ( ( ( ( ( ( ` u J G G S G 6 / ( ( ( ( ( ( ` e J S G S F , / ( ( ( ( ( ( ( ( ( ( ( ( ( ( ( ( ( / 1 G G G G G S G G G G G H n O ( ( ( ( ( ( | M H S G G G G G G S J s ` ( ( ( ( ( ( # K R w.~ ( ( ( ( ( ( ( ( ( ( ( ( ( ( ( ( ( ( ( p.qXwX>X{ ( ( ( ( ( ( ( ( ( ( ( ( ( ( ( ( ( ( ( ( ~ p.7XwXwXwX6XO.( ( ( ( ( ( } %XwXwXK.) ( ( ( ( ( ( ( X.=XwXwXwXwXwXwXwXwXwX7Xa.<.<.<.<.<.<.<.<.<.,.0.g N N N N N N N N N N N B                     ",
"                    <.<.<.<.<.<.<.<.<.<.<.<.<.<.<.<.<.<.<.<.<.<.<.,.L.wXwXG.G S S H m O ( ( ( ( ( ( ` u J G G S H m % ( ( ( ( ( ( ( % n H G G H U > ^ ( ( ( ( ( ( ( ( ( ( ( ( ( ( ( / : D H G G G S G G G G G S H n O ( ( ( ( ( ( o M H S G G G G G G S J s ` ( ( ( ( ( ( @.H.OXb.~ ( ( ( ( ( ( ( ( ( ( ( ( ( ( ( ( ( ( +.=XwXwX>X{ ( ( ( ( ( ( ( ( ( ( ( ( ( ( ( ( ( ( ( _ h.6XwXwXwXwX6XO.( ( ( ( ( ( } %XwXwX6X3.( ( ( ( ( ( ( ( t.7XwXwXwXwXwXwXwXwX7Xs.<.<.<.<.<.<.<.<.<.,.0.k N N N N N N N N N N N B                     ",
"                    <.<.<.<.<.<.<.<.<.<.<.<.<.<.<.<.<.<.<.<.<.<.<.<.Y.wXwXD.G S S H m O ( ( ( ( ( ( ` u J S S G S J q ` ( ( ( ( ( ( ^ 0 G S G S H Q , o ( ( ( ( ( ( ( ( ( ( ( ( ~ o 1 D H S S G G G G G G G G S H n O ( ( ( ( ( ( ] M S S G G G G G G S J s ` ( ( ( ( ( ( +.<XwXj.~ ( ( ( ( ( ( ( ( ( ( ( ( ( ( ( ( ~ ;.#XwXwXwX>X{ ( ( ( ( ( ( ( ( ( ( ( ( ( ( ( ( ( ~ +.Q.qXwXwXwXwXwX6XO.( ( ( ( ( ( } %XwXwXwX#X .( ( ( ( ( ( ( _ Y.wXwXwXwXwXwXwXwX0Xd.<.<.<.<.<.<.<.<.<.<.%.k N N N N N N N N N N N B                     ",
"                    <.<.<.<.<.<.<.<.<.<.<.<.<.<.<.<.<.<.<.<.<.<.<.<.T.wXwXS.G S G H j @ ~ ~ ~ ~ ~ ~ ` i J S G S S G D = ~ ~ ~ ~ ~ ~ ~ + c J S S S J F y ; O / ~ ( ( ( ( ( ~ / O > v G H S G G G G G G G G G G G H n O ~ ~ ~ ~ ~ ~ o M S S G G G G G G S J s ` ~ ~ ~ ~ ~ ~ #.6XwXj.~ ~ ~ ~ ~ ~ ~ ~ ~ ~ ~ ~ ~ ~ ~ ' O.J.;XwXwXwXwX>X .( ~ ~ ~ ~ ~ ~ ~ ~ ~ ~ ~ ~ ~ )  .<.Y.4XwXwXwXwXwXwXwX6X+.~ ~ ~ ~ ~ ( } %XwXwXwXwXL.) ( ~ ~ ~ ~ ~ ~ ..%XwXwXwXwXwXwXwX0Xh.<.<.<.<.<.<.<.<.<.<.%.h N N N N N N N N N N N B                     ",
"                    <.<.<.<.<.<.<.<.<.<.<.<.<.<.<.<.<.<.<.<.<.<.<.<.E.wXwXS.S S G S D q 2 2 2 2 2 2 3 j S S G S S S J b 4 2 2 2 2 2 2 2 d G S G S S S J F b e : ; = * = ; , r n F J G S G G G G G G G G G G G G S D q 1 2 2 2 2 2 3 U S S G G G G G S G G n 4 2 2 2 8 b.T.(.qXwX%XT.T.T.T.T.T.T.T.T.T.T.T.T.T.!.#X4XwXwXwXwXwXwX0XQ.T.T.T.T.T.T.T.T.T.T.T.T.T.R.(.*X0XwXwXwXwXwXwXwXwXwXqX`.T.T.T.T.T.T.W.6XwXwXwXwX7X^.T.T.T.T.T.T.T.T.&XwXwXwXwXwXwXwX0Xj.<.<.<.<.<.<.<.<.<.<.%.h N N N N N N N N N N N B                     ",
"                    <.<.<.<.<.<.<.<.<.<.<.<.<.<.<.<.<.<.<.<.<.<.<.<.Q.wXwXS.S S G S G J J J J J J J J G S G G G S S G J J J J J J J J J G S G G S S G G S H J G G F F F G G J H S S G G G G G G G G G G G G G G S G J J J J J J J G G G G G G G G G S G G G J J H W F.wXwXwXwXwXwXwXwXwXwXwXwXwXwXwXwXwXwXwXwXwXwXwXwXwXwXwXwXwXwXwXwXwXwXwXwXwXwXwXwXwXwXwXwXwXwXwXwXwXwXwXwXwXwXwXwXwXwXwXwXwXwXwXwXwXwXwXwXwXwXwXwXwXwXwXwXwXwXwXwXwXwXwXwXwXwXwXwXwX0Xj.<.<.<.<.<.<.<.<.<.<.%.h N N N N N N N N N N N B                     ",
"                    <.<.<.<.<.<.<.<.<.<.<.<.<.<.<.<.<.<.<.<.<.<.<.<.R.wXwXA.S S G G S S S S S S S S S S G G G G G G S S S S S S S S S S S G G G G G S S G S S S S S S S S S S G G G G G G G G G G G G G G G G G G S S S S S S S S S S G G G G G G G G S S S S S Y .XwXwXwXwXwXwXwXwXwXwXwXwXwXwXwXwXwXwXwXwXwXwXwXwXwXwXwXwXwXwXwXwXwXwXwXwXwXwXwXwXwXwXwXwXwXwXwXwXwXwXwXwXwXwXwXwXwXwXwXwXwXwXwXwXwXwXwXwXwXwXwXwXwXwXwXwXwXwXwXwXwXwXwXwXwXwXwXwXwXwX0Xj.<.<.<.<.<.<.<.<.<.<.*.d N N N N N N N N N N N B                     ",
"                    <.<.<.<.<.<.<.<.<.<.<.<.<.<.<.<.<.<.<.<.<.<.<.<.E.wXwXS.S S G G G G G G G G G G G G G G G G G G G G G G G G G G G G G G G G G G G G G G G G G G G G G G G G G G G G G G G G G G G G G G G G G G G G G G G G G G G G G G G G G G G S G S G m.oXwXwXwXwXwXwXwXwXwXwXwXwXwXwXwXwXwXwXwXwXwXwXwXwXwXwXwXwXwXwXwXwXwXwXwXwXwXwXwXwXwXwXwXwXwXwXwXwXwXwXwXwXwXwXwXwXwXwXwXwXwXwXwXwXwXwXwXwXwXwXwXwXwXwXwXwXwXwXwXwXwXwXwXwXwXwXwXwXwXwXwX0Xj.<.<.<.<.<.<.<.<.<.<.%.d N N N N N N N N N N N B                     ",
"                    <.<.<.<.<.<.<.<.<.<.<.<.<.<.<.<.<.<.<.<.<.<.<.<.T.wXwXS.S S G G G G G G G G G G G G G G G G G G G G G G G G G G G G G G G G G G G G G G G G G G G G G G G G G G G G G G G G G G G G G G G G G G G G G G G G G G G G G G G G G S G G S G M.1XwXwXwXwXwXwXwXwXwXwXwXwXwXwXwXwXwXwXwXwXwXwXwXwXwXwXwXwXwXwXwXwXwXwXwXwXwXwXwXwXwXwXwXwXwXwXwXwXwXwXwXwXwXwXwXwXwXwXwXwXwXwXwXwXwXwXwXwXwXwXwXwXwXwXwXwXwXwXwXwXwXwXwXwXwXwXwXwXwXwXwXwX0Xh.<.<.<.<.<.<.<.<.<.<.%.h N N N N N N N N N N N B                     ",
"                    <.<.<.<.<.<.<.<.<.<.<.<.<.<.<.<.<.<.<.<.<.<.<.<.Y.wXwXS.G S G G G G G G G G G G G G G G G G G G G G G G G G G G G G G G G G G G G G G G G G G G G G G G G G G G G G G G G G G G G G G G G G G G G G G G G G G G G G G G G G G S G S G V.3XwXwXwXwXwXwXwXwXwXwXwXwXwXwXwXwXwXwXwXwXwXwXwXwXwXwXwXwXwXwXwXwXwXwXwXwXwXwXwXwXwXwXwXwXwXwXwXwXwXwXwXwXwXwXwXwXwXwXwXwXwXwXwXwXwXwXwXwXwXwXwXwXwXwXwXwXwXwXwXwXwXwXwXwXwXwXwXwXwXwXwXwXwX0Xg.<.<.<.<.<.<.<.<.<.<.%.h N N N N N N N N N N N B                     ",
"                    <.<.<.<.<.<.<.<.<.<.<.<.<.<.<.<.<.<.<.<.<.<.<.<.I.wXwXD.G S G G G G G G G G G G G G G G G G G G G G G G G G G G G G G G G G G G G G G G G G G G G G G G G G G G G G G G G G G G G G G G G G G G G G G G G G G G G G G G G G G G S P A.9XwXwXwXwXwXwXwXwXwXwXwXwXwXwXwXwXwXwXwXwXwXwXwXwXwXwXwXwXwXwXwXwXwXwXwXwXwXwXwXwXwXwXwXwXwXwXwXwXwXwXwXwXwXwXwXwXwXwXwXwXwXwXwXwXwXwXwXwXwXwXwXwXwXwXwXwXwXwXwXwXwXwXwXwXwXwXwXwXwXwXwXwXwXwX7Xs.<.<.<.<.<.<.<.<.<.,.0.k N N N N N N N N N N N B                     ",
"                    <.<.<.<.<.<.<.<.<.<.<.<.<.<.<.<.<.<.<.<.<.<.<.;.P.qXwXG.G S G G G G G G G G G G G G G G G G G G G G G G G G G G G G G G G G G G G G G G G G G G G G G G G G G G G G G G G G G G G G G G G G G G G G G G G G G G G G S S G G S S I G.9XwXwXwXwXwXwXwXwXwXwXwXwXwXwXwXwXwXwXwXwXwXwXwXwXwXwXwXwXwXwXwXwXwXwXwXwXwXwXwXwXwXwXwXwXwXwXwXwXwXwXwXwXwXwXwXwXwXwXwXwXwXwXwXwXwXwXwXwXwXwXwXwXwXwXwXwXwXwXwXwXwXwXwXwXwXwXwXwXwXwXwXwXwXwXwX7Xa.<.<.<.<.<.<.<.<.<.,.0.g N N N N N N N N N N N B                     ",
"                    <.<.<.<.<.<.<.<.<.<.<.<.<.<.<.<.<.<.<.<.<.<.<.<.J.qXwXF.G S G S G G G G G G G G G G G G G G G G G G G G G G G G G G G G G G G G G G G G G G G G G G G G G G G G G G G G G G G G G G G G G G G G G G G G G G G G G G G G G S S Y  XwXwXwXwXwXwXwXwXwXwXwXwXwXwXwXwXwXwXwXwXwXwXwXwXwXwXwXwXwXwXwXwXwXwXwXwXwXwXwXwXwXwXwXwXwXwXwXwXwXwXwXwXwXwXwXwXwXwXwXwXwXwXwXwXwXwXwXwXwXwXwXwXwXwXwXwXwXwXwXwXwXwXwXwXwXwXwXwXwXwXwXwXwXwXwXwXwX6Xi.<.<.<.<.<.<.<.<.<.,.5.l N N N N N N N N N N N B                     ",
"                    <.<.<.<.<.<.<.<.<.<.<.<.<.<.<.<.<.<.<.<.<.<.<.<.g.0XwX.XP S G G G G G G G G G G G G G G G G G G G G G G G G G G G G G G G G G G G G G G G G G G G G G G G G G G G G G G G G G G G G G G G G G G G G G G G G G G G S S G S G R oXwXwXwXwXwXwXwXwXwXwXwXwXwXwXwXwXwXwXwXwXwXwXwXwXwXwXwXwXwXwXwXwXwXwXwXwXwXwXwXwXwXwXwXwXwXwXwXwXwXwXwXwXwXwXwXwXwXwXwXwXwXwXwXwXwXwXwXwXwXwXwXwXwXwXwXwXwXwXwXwXwXwXwXwXwXwXwXwXwXwXwXwXwXwXwXwXwXwX5Xy.<.<.<.<.<.<.<.<.<.<.7.z N N N N N N N N N N N B                     ",
"                    <.<.<.<.<.<.<.<.<.<.<.<.<.<.<.<.<.<.<.<.<.<.<.,.a.7XwXoXP S S S G G G G G G G G G G G G G G G G G G G G G G G G G G G G G G G G G G G G G G G G G G G G G G G G G G G G G G G G G G G G G G G G G G G G G G G G G G S S G N.OXwXwXwXwXwXwXwXwXwXwXwXwXwXwXwXwXwXwXwXwXwXwXwXwXwXwXwXwXwXwXwXwXwXwXwXwXwXwXwXwXwXwXwXwXwXwXwXwXwXwXwXwXwXwXwXwXwXwXwXwXwXwXwXwXwXwXwXwXwXwXwXwXwXwXwXwXwXwXwXwXwXwXwXwXwXwXwXwXwXwXwXwXwXwXwXwXwXwXwX,Xr.<.<.<.<.<.<.<.<.<.<.9.z N N N N N N N N N N N N                     ",
"                    <.<.<.<.<.<.<.<.<.<.<.<.<.<.<.<.<.<.<.<.<.<.<.<.t.6XwXOXI S S S G G G G G G G G G G G G G G G G G G G G G G G G G G G G G G G G G G G G G G G G G G G G G G G G G G G G G G G G G G G G G G G G G G G G G S S S S G S G V.1XwXwXwXwXwXwXwXwXwXwXwXwXwXwXwXwXwXwXwXwXwXwXwXwXwXwXwXwXwXwXwXwXwXwXwXwXwXwXwXwXwXwXwXwXwXwXwXwXwXwXwXwXwXwXwXwXwXwXwXwXwXwXwXwXwXwXwXwXwXwXwXwXwXwXwXwXwXwXwXwXwXwXwXwXwXwXwXwXwXwXwXwXwXwXwXwXwXwXwXwX[.1.<.<.<.<.<.<.<.<.<.<.c.B N N N N N N N N N N N B                     ",
"                    <.<.<.<.<.<.<.<.<.<.<.<.<.<.<.<.<.<.<.<.<.<.<.<.y.5XwX1XW S G G G G G G G G G G G G G G G G G G G G G G G G G G G G G G G G G G G G G G G G G G G G G G G G G G G G G G G G G G G G G G G G G G G G G G S G G G G S P A.2XwXwXwXwXwXwXwXwXwXwXwXwXwXwXwXwXwXwXwXwXwXwXwXwXwXwXwXwXwXwXwXwXwXwXwXwXwXwXwXwXwXwXwXwXwXwXwXwXwXwXwXwXwXwXwXwXwXwXwXwXwXwXwXwXwXwXwXwXwXwXwXwXwXwXwXwXwXwXwXwXwXwXwXwXwXwXwXwXwXwXwXwXwXwXwXwXwXwXwXwXwXR.;.<.<.<.<.<.<.<.<.<.<.9 B N N N N N N N N N N N A                     ",
"                    <.<.<.<.<.<.<.<.<.<.<.<.<.<.<.<.<.<.<.<.<.<.<.<.1.$XwX2XR S G S G G G G G G G G G G G G G G G G G G G G G G G G G G G G G G G G G G G G G G G G G G G G G G G G G G G G G G S S J J J J J J J H S S S J J J J J J I D.9XwXwXwXwXwXwXwXwXwXwXwXwXwXwXwXwXwXwXwXwXwXwXwXwXwXwXwXwXwXwXwXwXwXwXwXwXwXwXwXwXwXwXwXwXwXwXwXwXwXwXwXwXwXwXwXwXwXwXwXwXwXwXwXwXwXwXwXwXwXwXwXwXwXwXwXwXwXwXwXwXwXwXwXwXwXwXwXwXwXwXwXwXwXwXwXwXwXwXwXwXwXwXT.;.<.<.<.<.<.<.<.<.<.:.p N N N N N N N N N N N N Z                     ",
"                    <.<.<.<.<.<.<.<.<.<.<.<.<.<.<.<.<.<.<.<.<.<.<.<.;.W.wX9XM.S S G G G G G G G G G G G G G G G G G G G G G G G G G G G G G G G G G G G G G G G G G G G G G G G G G G G G G G S G Q v v v v v v v j G S D v v v v v v H.$X&X$X$X&X&X$X&X-X0XwXwXwXwXwXwXwXwXwXwXwX-X$X&X&X&X&X&X&X&X&X&X&X&X&X&X&X&X&X&X$X&X7XwXwXwXwXwXwXwXwXwXwXwXwXwXwXwXwXwXwXwXwXwXwXwXwXwXwXwXwXwXwXwXwXwXwXwXwXwXwXwXwXwXwXwXwXwXwXwXwXwXwXwXwXwXwXwXwXwXwXwXwXwXK.;.<.<.<.<.<.<.<.<.<.>.u C N N N N N N N N N N N Z                     ",
"                    <.<.<.<.<.<.<.<.<.<.<.<.<.<.<.<.<.<.<.<.<.<.<.<.;.I.wXwXV.S S G G G G G G G G G G G G G G G G G G G G G G G G G G G G G G G G G G G G G G G G G G G G G G G G G G G G G G S J 3 o . . . . . . : P J t + . . . . ]  .{ { { { { { {  .X.<.g.).7XwXwXwXwXwXwXwX8Xr.[ { { { { { { { { { { { { { { { { { {  .^.wXwXwXwXwXwXwXwXwXwXwXwXwXwXwXwXwXwXwXwXwXwXwXwXwXwXwXwXwXwXwXwXwXwXwXwXwXwXwXwXwXwXwXwXwXwXwXwXwXwXwXwXwXwXwXwXwXwXwXwX0Xl.<.<.<.<.<.<.<.<.<.<.&.c N N N N N N N N N N N N                       ",
"                      <.<.<.<.<.<.<.<.<.<.<.<.<.<.<.<.<.<.<.<.<.<.<.,.K.qXwXS.G S G G G G G G G G G G G G G G G G G G G G G G G G G G G G G G G G G G G G G G G G G G G G G G G G G G G G G G S J 1 ~ ( ( ( ( ( ( 6.P H e / ( ( ( ( ( ( ( ( ( ( ( ( ( ( ( ( ( ' 1.].qXwXwXwXwXwX8X<.( ( ( ( ( ( ( ( ( ( ( ( ( ( ( ( ( ( ( ) Q.wXwXwXwXwXwXwXwXwXwXwXwXwXwXwXwXwXwXwXwXwXwXwXwXwXwXwXwXwXwXwXwXwXwXwXwXwXwXwXwXwXwXwXwXwXwXwXwXwXwXwXwXwXwXwXwXwXwXwXwX6Xp.<.<.<.<.<.<.<.<.<.<.%.h N N N N N N N N N N N B                       ",
"                      <.<.<.<.<.<.<.<.<.<.<.<.<.<.<.<.<.<.<.<.<.<.<.,.g.0XwX|.G S G G G G G G G G G G G G G G G G G G G G G G G G G G G G G G G G G G G G G G G G G G G G G G G G G G G G G G S J 1 ~ ( ( ( ( ( ( 6.P H e / ( ( ( ( ( ( ( ( ( ( ( ( ( ( ( ( ( ( ( [ P.0XwXwXwXwX8X<.( ( ( ( ( ( ( ( ( ( ( ( ( ( ( ( ( ( ( _ Q.wXwXwXwXwXwXwXwXwXwXwXwXwXwXwXwXwXwXwXwXwXwXwXwXwXwXwXwXwXwXwXwXwXwXwXwXwXwXwXwXwXwXwXwXwXwXwXwXwXwXwXwXwXwXwXwXwXwXwXwX-Xe.<.<.<.<.<.<.<.<.<.<.q.g N N N N N N N N N N N B                       ",
"                      <.<.<.<.<.<.<.<.<.<.<.<.<.<.<.<.<.<.<.<.<.<.<.<.i.4XwXOXI S S G G G G G G G G G G G G G G G G G G G G G G G G G G G G G G G G G G G G G G G G G G G G G G G G G G G G G S J 1 ~ ( ( ( ( ( ( 6.P H e / ( ( ( ( ( ( ( ( ( ( ( ( ( ( ( ( ( ( ( ( _ l.0XwXwXwX8X<.( ( ( ( ( ( ( ( ( ( ( ( ( ( ( ( ( ( ( _ Q.wXwXwXwXwXwXwXwXwXwXwXwXwXwXwXwXwXwXwXwXwXwXwXwXwXwXwXwXwXwXwXwXwXwXwXwXwXwXwXwXwXwXwXwXwXwXwXwXwXwXwXwXwXwXwXwXwXwXwXwX#X1.<.<.<.<.<.<.<.<.<.<.8.z N N N N N N N N N N N B                       ",
"                      <.<.<.<.<.<.<.<.<.<.<.<.<.<.<.<.<.<.<.<.<.<.<.<.3.*XwX3XY S S G G G G G G G G G G G G G G G G G G G G G G G G G G G G G G G G G G G G G G G G G G G G G G G G G G G G G S J 1 ~ ( ( ( ( ( ( 6.P H e / ( ( ( ( ( ( ( ( ( ( ( ( ( ( ( ( ( ( ( ( ( _ T.wXwXwX8X<.( ( ( ( ( ( ( ( ( ( ( ( ( ( ( ( ( ( ( _ Q.wXwXwXwXwXwXwXwXwXwXwXwXwXwXwXwXwXwXwXwXwXwXwXwXwXwXwXwXwXwXwXwXwXwXwXwXwXwXwXwXwXwXwXwXwXwXwXwXwXwXwXwXwXwXwXwXwXwXwXwX^.<.<.<.<.<.<.<.<.<.<.<.5 B N N N N N N N N N N N B                       ",
"                      :.<.<.<.<.<.<.<.<.<.<.<.<.<.<.<.<.<.<.<.<.<.<.<.<.).wX9XM.S S G G G G G G G G G G G G G G G G G G G G G G G G G G G G G G G G G G G G G G G G G G G G G G G G G G G G G S J 1 ~ ( ( ( ( ( ( 6.P W n._ ( ( ( ( ( ( ( ~ ~ ~ ~ ~ ( ( ( ( ( ( ( ( ( ( ..*XwXwX8X<.( ( ( ( ( ( ( ~ ) ) ) ) ) ) ) ) ) ) ~ _ !.wXwXwXwXwXwXwXwXwXwXwXwXwXwXwXwXwXwXwXwXwXwXwXwXwXwXwXwXwXwXwXwXwXwXwXwXwXwXwXwXwXwXwXwXwXwXwXwXwXwXwXwXwXwXwXwXwXwXwXwXI.;.<.<.<.<.<.<.<.<.<.<.7 N N N N N N N N N N N N A                       ",
"                      :.<.<.<.<.<.<.<.<.<.<.<.<.<.<.<.<.<.<.<.<.<.<.<.;.T.wXwXA.G S G G G G G G G G G G G G G G G G G G G G G G G G G G G G G G G G G G G G G G G G G G G G G G G G G G G G G S J 1 ~ ( ( ( ( ( ( 6.T .X`._ ( ( ( ( ( ( O.!./././.E.k.;.' ( ( ( ( ( ( ( ( h.wXwX8X<.( ( ( ( ( ( _ z.].].].].].].].].].].].[.4XwXwXwXwXwXwXwXwXwXwXwXwXwXwXwXwXwXwXwXwXwXwXwXwXwXwXwXwXwXwXwXwXwXwXwXwXwXwXwXwXwXwXwXwXwXwXwXwXwXwXwXwXwXwXwXwXwXwXwX7Xd.<.<.<.<.<.<.<.<.<.<.2.y N N N N N N N N N N N N                         ",
"                      :.<.<.<.<.<.<.<.<.<.<.<.<.<.<.<.<.<.<.<.<.<.<.<.;.g.0XwXF.G S S G G G G G G G G G G G G G G G G G G G G G G G G G G G G G G G G G G G G G G G G G G G G G G G G G G G G S J 1 ~ ( ( ( ( ( ~ q.+XwX(._ ( ( ( ( ( ( <.0XwXwXwXwXwX7XQ. .( ( ( ( ( ( ( X.-XwX8X<.( ( ( ( ( ( _ ).wXwXwXwXwXwXwXwXwXwXwXwXwXwXwXwXwXwXwXwXwXwXwXwXwXwXwXwXwXwXwXwXwXwXwXwXwXwXwXwXwXwXwXwXwXwXwXwXwXwXwXwXwXwXwXwXwXwXwXwXwXwXwXwXwXwXwXwXwXwXwXwX-Xr.<.<.<.<.<.<.<.<.<.<.4.j N N N N N N N N N N N N                         ",
"                        <.<.<.<.<.<.<.<.<.<.<.<.<.<.<.<.<.<.<.<.<.<.<.<.t.4XwXOXI S S G G G G G G G G G G G G G G G G G G G G G G G G G G G G G G G G G G G G G G G G G G G G G G G G G G G G S J 1 ~ ( ( ( ( ( ~ h.wXwX(._ ( ( ( ( ( ( :.7XwXwXwXwXwXwXwX!._ ( ( ( ( ( ( / ^.wX8X<.( ( ( ( ( ( _ l././././././././././././.4XwXwXwXwXwXwXwXwXwXwXwXwXwXwXwXwXwXwXwXwXwXwXwXwXwXwXwXwXwXwXwXwXwXwXwXwXwXwXwXwXwXwXwXwXwXwXwXwXwXwXwXwXwXwXwXwXwXwXwX#X1.<.<.<.<.<.<.<.<.<.<.5.z N N N N N N N N N N N B                         ",
"                        <.<.<.<.<.<.<.<.<.<.<.<.<.<.<.<.<.<.<.<.<.<.<.<.1.#XwX2XR S S G G G G G G G G G G G G G G G G G G G G G G G G G G G G G G G G G G G G G G G G G G G G G G G G G G G G S J 1 ~ ( ( ( ( ( ~ h.wXwX(._ ( ( ( ( ( ( :.7XwXwXwXwXwXwXwX6X<.( ( ( ( ( ( ( L.wX8X<.( ( ( ( ( ( ( ( ( ( ( ( ( ( ( ( ( ( ( ) Q.wXwXwXwXwXwXwXwXwXwXwXwXwXwXwXwXwXwXwXwXwXwXwXwXwXwXwXwXwXwXwXwXwXwXwXwXwXwXwXwXwXwXwXwXwXwXwXwXwXwXwXwXwXwXwXwXwXwXwXT.;.<.<.<.<.<.<.<.<.<.<.5 B N N N N N N N N N N N B                         ",
"                        <.<.<.<.<.<.<.<.<.<.<.<.<.<.<.<.<.<.<.<.<.<.<.<.;.T.wXwXZ.S S G G G G G G G G G G G G G G G G G G G G G G G G G G G G G G G G G G G G G G G G G G G G G G G G G G G G S J 1 ~ ( ( ( ( ( ~ h.wXwX(._ ( ( ( ( ( ( :.7XwXwXwXwXwXwXwXwXl.( ( ( ( ( ( ( h.wX8X<.( ( ( ( ( ( ( ( ( ( ( ( ( ( ( ( ( ( ( _ Q.wXwXwXwXwXwXwXwXwXwXwXwXwXwXwXwXwXwXwXwXwXwXwXwXwXwXwXwXwXwXwXwXwXwXwXwXwXwXwXwXwXwXwXwXwXwXwXwXwXwXwXwXwXwXwXwXwXwX0Xh.<.<.<.<.<.<.<.<.<.<.:.p N N N N N N N N N N N N B                         ",
"                        <.<.<.<.<.<.<.<.<.<.<.<.<.<.<.<.<.<.<.<.<.<.<.<.;.h.0XwXF.G S G G G G G G G G G G G G G G G G G G G G G G G G G G G G G G G G G G G G G G G G G G G G G G G G G G G S S J 1 ~ ( ( ( ( ( ~ h.wXwX(._ ( ( ( ( ( ( :.7XwXwXwXwXwXwXwXwXP.( ( ( ( ( ( ( s.wX8X<.( ( ( ( ( ( ( ( ( ( ( ( ( ( ( ( ( ( ( _ Q.wXwXwXwXwXwXwXwXwXwXwXwXwXwXwXwXwXwXwXwXwXwXwXwXwXwXwXwXwXwXwXwXwXwXwXwXwXwXwXwXwXwXwXwXwXwXwXwXwXwXwXwXwXwXwXwXwXwX-Xy.<.<.<.<.<.<.<.<.<.<.&.v N N N N N N N N N N N N B                         ",
"                        :.<.<.<.<.<.<.<.<.<.<.<.<.<.<.<.<.<.<.<.<.<.<.<.<.y.-XwXOXI S S G G G G G G G G G G G G G G G G G G G G G G G G G G G G G G G G G G G G G G G G G G G G G G G G G S G S J 2 ^ ( ( ( ( ( ~ h.wXwX(._ ( ( ( ( ( ( :.7XwXwXwXwXwXwXwXwXz.( ( ( ( ( ( ( g.wX8X<.( ( ( ( ( ( ( ( ( ( ( ( ( ( ( ( ( ( ( _ Q.wXwXwXwXwXwXwXwXwXwXwXwXwXwXwXwXwXwXwXwXwXwXwXwXwXwXwXwXwXwXwXwXwXwXwXwXwXwXwXwXwXwXwXwXwXwXwXwXwXwXwXwXwXwXwXwXwXwX_.1.<.<.<.<.<.<.<.<.<.<.q.g N N N N N N N N N N N N                           ",
"                          <.<.<.<.<.<.<.<.<.<.<.<.<.<.<.<.<.<.<.<.<.<.<.<.1.).wX9XM.S S G G G G G G G G G G G G G G G G G G G G G G G G G G G G G G G G G G G G G G G G G G G G G G G G G G G S J 1 ^ ( ( ( ( ( ~ h.wXwX(._ ( ( ( ( ( ( :.7XwXwXwXwXwXwXwX0Xe.( ( ( ( ( ( ( J.wX7X<.( ( ( ( ( ( ( ( ( ( ( ( ( ( ( ( ( ( ( ) Q.wXwXwXwXwXwXwXwXwXwXwXwXwXwXwXwXwXwXwXwXwXwXwXwXwXwXwXwXwXwXwXwXwXwXwXwXwXwXwXwXwXwXwXwXwXwXwXwXwXwXwXwXwXwXwXwXwXwXY.,.<.<.<.<.<.<.<.<.<.<.x.B N N N N N N N N N N N N                           ",
"                          <.<.<.<.<.<.<.<.<.<.<.<.<.<.<.<.<.<.<.<.<.<.<.<.;.L.wXwXS.G S S G G G G G G G G G G G G G G G G G G G G G G G G G G G G G G G G G G G G G G G G G G G G G G G G G S S J 8 ~ ( ( ( ( ( ~ h.wXwX(._ ( ( ( ( ( ( :.7XwXwXwXwXwXwXwX#X[ ( ( ( ( ( ( ) Q.wX7X<.( ( ( ( ( ( ( [  . . . . . . . . . . ...^.wXwXwXwXwXwXwXwXwXwXwXwXwXwXwXwXwXwXwXwXwXwXwXwXwXwXwXwXwXwXwXwXwXwXwXwXwXwXwXwXwXwXwXwXwXwXwXwXwXwXwXwXwXwXwXwXwX4Xr.<.<.<.<.<.<.<.<.<.<.:.q N N N N N N N N N N N N B                           ",
"                          <.<.<.<.<.<.<.<.<.<.<.<.<.<.<.<.<.<.<.<.<.<.<.<.<.t.4XwXoXP S G S G G G G G G G G G G G G G G G G G G G G G G G G G G G G G G G G G G G G G G G G G G G G G G G G S G B.b.) ( ( ( ( ( ~ h.wXwX(._ ( ( ( ( ( ( :.8XwXwXwXwXwXwX;X1.( ( ( ( ( ( ( { &XwX8X<.( ( ( ( ( ( _ I.=X*X*X*X*X*X*X*X*X*X*X=X7XwXwXwXwXwXwXwXwXwXwXwXwXwXwXwXwXwXwXwXwXwXwXwXwXwXwXwXwXwXwXwXwXwXwXwXwXwXwXwXwXwXwXwXwXwXwXwXwXwXwXwXwXwXwXwXwXwX#X1.<.<.<.<.<.<.<.<.<.<.&.d N N N N N N N N N N N N A                           ",
"                          :.<.<.<.<.<.<.<.<.<.<.<.<.<.<.<.<.<.<.<.<.<.<.<.<.1._.wX2Xm.S S G G G G G G G G G G G G G G G G G G G G G G G G G G G G G G G G G G G G G G G G G G G G G G G S S P A.2XT.) ( ( ( ( ( ~ h.wXwX(._ ( ( ( ( ( ( <.7XwXwXwXwX7X`.<.( ( ( ( ( ( ( ( t.qXwX8X<.( ( ( ( ( ( _ /.wXwXwXwXwXwXwXwXwXwXwXwXwXwXwXwXwXwXwXwXwXwXwXwXwXwXwXwXwXwXwXwXwXwXwXwXwXwXwXwXwXwXwXwXwXwXwXwXwXwXwXwXwXwXwXwXwXwXwXwXwXwXwXwXwXwXwXwXwXwXY.<.<.<.<.<.<.<.<.<.<.<.7.g N N N N N N N N N N N N                             ",
"                            <.<.<.<.<.<.<.<.<.<.<.<.<.<.<.<.<.<.<.<.<.<.<.<.;.P.qXwXS.G S G G G G G G G G G G G G G G G G G G G G G G G G G G G G G G G G G G G G G G G G G G G G G G S S P D.9XwXT.~ ( ( ( ( ( ~ h.wXwX(._ ( ( ( ( ( ( { i.a.a.a.r.;.' ( ( ( ( ( ( ( ( } _.wXwX8X<.( ( ( ( ( ( ) 1.d.s.s.s.s.s.s.s.s.s.s.g.%XwXwXwXwXwXwXwXwXwXwXwXwXwXwXwXwXwXwXwXwXwXwXwXwXwXwXwXwXwXwXwXwXwXwXwXwXwXwXwXwXwXwXwXwXwXwXwXwXwXwXwXwXwXwXwXwX7Xs.,.<.<.<.<.<.<.<.<.<.<.9 B N N N N N N N N N N N N                             ",
"                            <.<.<.<.<.<.<.<.<.<.<.<.<.<.<.<.<.<.<.<.<.<.<.<.<.t.4XwXoXI S S G G G G G G G G G G G G G G G G G G G G G G G G G G G G G G G G G G G G G G G G G G G G S S I F.wXwXwXT.~ ( ( ( ( ( ~ h.wXwX(._ ( ( ( ( ( ( ( ( ( ( ( ( ( ( ( ( ( ( ( ( ( ~ h.qXwXwX8X<.( ( ( ( ( ( ( ( ( ( ( ( ( ( ( ( ( ( ( ~ Q.wXwXwXwXwXwXwXwXwXwXwXwXwXwXwXwXwXwXwXwXwXwXwXwXwXwXwXwXwXwXwXwXwXwXwXwXwXwXwXwXwXwXwXwXwXwXwXwXwXwXwXwXwXwXwXwX{.1.<.<.<.<.<.<.<.<.<.<.>.y N N N N N N N N N N N N B                             ",
"                            :.<.<.<.<.<.<.<.<.<.<.<.<.<.<.<.<.<.<.<.<.<.<.<.<.<.(.wX9XM.S S G G G G G G G G G G G G G G G G G G G G G G G G G G G G G G G G G G G G G G G G G S S S G Y XXwXwXwXwXT.~ ( ( ( ( ( ~ h.wXwX(._ ( ( ( ( ( ( ( ( ( ( ( ( ( ( ( ( ( ( ( ( ( 3.4XwXwXwX8X<.( ( ( ( ( ( ( ( ( ( ( ( ( ( ( ( ( ( ( _ Q.wXwXwXwXwXwXwXwXwXwXwXwXwXwXwXwXwXwXwXwXwXwXwXwXwXwXwXwXwXwXwXwXwXwXwXwXwXwXwXwXwXwXwXwXwXwXwXwXwXwXwXwXwXwXwXwXL.,.<.<.<.<.<.<.<.<.<.<.5.g N N N N N N N N N N N N B                             ",
"                              <.<.<.<.<.<.<.<.<.<.<.<.<.<.<.<.<.<.<.<.<.<.<.<.;.J.qXwXG.G S G G G G G G G G G G G G G G G G G G G G G G G G G G G G G G G G G G G G G G G S S S S G m.OXwXwXwXwXwXT.~ ( ( ( ( ( ~ h.wXwX(._ ( ( ( ( ( ( ( ( ( ( ( ( ( ( ( ( ( ( ( ~ 3.-XwXwXwXwX8X<.( ( ( ( ( ( ( ( ( ( ( ( ( ( ( ( ( ( ( _ Q.wXwXwXwXwXwXwXwXwXwXwXwXwXwXwXwXwXwXwXwXwXwXwXwXwXwXwXwXwXwXwXwXwXwXwXwXwXwXwXwXwXwXwXwXwXwXwXwXwXwXwXwXwXwXwX4Xi.<.<.<.<.<.<.<.<.<.<.<.8 B N N N N N N N N N N N N                               ",
"                              <.<.<.<.<.<.<.<.<.<.<.<.<.<.<.<.<.<.<.<.<.<.<.<.<.e.=XwX1XY S S G G G G G G G G G G G G G G G G G G G G G G G G G G G G G G G G G G G G G S G G S G M.1XwXwXwXwXwXwXT.~ ( ( ( ( ( ~ h.wXwX(._ ( ( ( ( ( ( ( ( ( ( ( ( ( ( ( ( ( ( } h.4XwXwXwXwXwX8X<.( ( ( ( ( ( ( ( ( ( ( ( ( ( ( ( ( ( ( _ Q.wXwXwXwXwXwXwXwXwXwXwXwXwXwXwXwXwXwXwXwXwXwXwXwXwXwXwXwXwXwXwXwXwXwXwXwXwXwXwXwXwXwXwXwXwXwXwXwXwXwXwXwXwXwXwX/.<.<.<.<.<.<.<.<.<.<.<.2.y N N N N N N N N N N N N B                               ",
"                              <.<.<.<.<.<.<.<.<.<.<.<.<.<.<.<.<.<.<.<.<.<.<.<.<.<.T.wXwXZ.G S G G G G G G G G G G G G G G G G G G G G G G G G G G G G G G G G G G G G G S G S G V.2XwXwXwXwXwXwXwXY.( ( ( ( ( ( ! h.wXwX(._ ( ( ( ( ( ( ( ( ( ( ( ( ( ( ( ~ [ r._.qXwXwXwXwXwXwX8X;.! ( ( ( ( ( ( ( ( ( ( ( ( ( ( ( ( ( ( ~ Q.wXwXwXwXwXwXwXwXwXwXwXwXwXwXwXwXwXwXwXwXwXwXwXwXwXwXwXwXwXwXwXwXwXwXwXwXwXwXwXwXwXwXwXwXwXwXwXwXwXwXwXwXwXwX0Xh.<.<.<.<.<.<.<.<.<.<.<.q.g N N N N N N N N N N N N B                               ",
"                              :.<.<.<.<.<.<.<.<.<.<.<.<.<.<.<.<.<.<.<.<.<.<.<.<.<.a.5XwXoXP S G G G G G G G G G G G G G G G G G G G G G G G G G G G G G G G G G G G G G S S P S.9XwXwXwXwXwXwXwXwX_.r.e.e.e.e.e.3.Q.wXwX$Xr.e.e.e.e.e.e.e.e.e.e.e.e.e.e.a.Y.$X0XwXwXwXwXwXwXwXwX0Xb.3.e.e.e.e.e.e.e.e.e.e.e.e.e.e.e.e.e.e.r.{.wXwXwXwXwXwXwXwXwXwXwXwXwXwXwXwXwXwXwXwXwXwXwXwXwXwXwXwXwXwXwXwXwXwXwXwXwXwXwXwXwXwXwXwXwXwXwXwXwXwXwXwXwXwX#X1.<.<.<.<.<.<.<.<.<.<.<.9 B N N N N N N N N N N N N                                 ",
"                                <.<.<.<.<.<.<.<.<.<.<.<.<.<.<.<.<.<.<.<.<.<.<.<.<.<.^.wX9XM.S S S S G G G G G G G G G G G G G G G G G G G G G G G G G G G G G G G G G S S I G.9XwXwXwXwXwXwXwXwXwXwXqXqXqXqXqXqXqXwXwXwXwXqXqXqXqXqXqXqXqXqXqXqXqXqXqXwXwXwXwXwXwXwXwXwXwXwXwXwXwXwXqXqXqXqXqXqXqXqXqXqXqXqXqXqXqXqXqXqXqXqXwXwXwXwXwXwXwXwXwXwXwXwXwXwXwXwXwXwXwXwXwXwXwXwXwXwXwXwXwXwXwXwXwXwXwXwXwXwXwXwXwXwXwXwXwXwXwXwXwXwXwXwXwXwXqXJ.;.<.<.<.<.<.<.<.<.<.<.&.v N N N N N N N N N N N N B                                 ",
"                                <.<.<.<.<.<.<.<.<.<.<.<.<.<.<.<.<.<.<.<.<.<.<.<.<.<.g.7XwX XP S S S G G G G G G G G G G G G G G G G G G G G G G G G G G G G G G G G S S Y  XwXwXwXwXwXwXwXwXwXwXwXwXwXwXwXwXwXwXwXwXwXwXwXwXwXwXwXwXwXwXwXwXwXwXwXwXwXwXwXwXwXwXwXwXwXwXwXwXwXwXwXwXwXwXwXwXwXwXwXwXwXwXwXwXwXwXwXwXwXwXwXwXwXwXwXwXwXwXwXwXwXwXwXwXwXwXwXwXwXwXwXwXwXwXwXwXwXwXwXwXwXwXwXwXwXwXwXwXwXwXwXwXwXwXwXwXwXwXwXwXwXwXwXwXwXwX=Xy.<.<.<.<.<.<.<.<.<.<.<.8.z N N N N N N N N N N N N B                                 ",
"                                  <.<.<.<.<.<.<.<.<.<.<.<.<.<.<.<.<.<.<.<.<.<.<.<.<.1._.wX9XN.S S G G G G G G G G G G G G G G G G G G G G G G G G G G G G G G G G S G R oXwXwXwXwXwXwXwXwXwXwXwXwXwXwXwXwXwXwXwXwXwXwXwXwXwXwXwXwXwXwXwXwXwXwXwXwXwXwXwXwXwXwXwXwXwXwXwXwXwXwXwXwXwXwXwXwXwXwXwXwXwXwXwXwXwXwXwXwXwXwXwXwXwXwXwXwXwXwXwXwXwXwXwXwXwXwXwXwXwXwXwXwXwXwXwXwXwXwXwXwXwXwXwXwXwXwXwXwXwXwXwXwXwXwXwXwXwXwXwXwXwXwXwXwXwXwXwXT.<.<.<.<.<.<.<.<.<.<.<.>.r N N N N N N N N N N N N N                                   ",
"                                  <.<.<.<.<.<.<.<.<.<.<.<.<.<.<.<.<.<.<.<.<.<.<.<.<.<.j.0XwXF.G S G G G G G G G G G G G G G G G G G G G G G G G G G G G G G G G S G M.OXwXwXwXwXwXwXwXwXwXwXwXwXwXwXwXwXwXwXwXwXwXwXwXwXwXwXwXwXwXwXwXwXwXwXwXwXwXwXwXwXwXwXwXwXwXwXwXwXwXwXwXwXwXwXwXwXwXwXwXwXwXwXwXwXwXwXwXwXwXwXwXwXwXwXwXwXwXwXwXwXwXwXwXwXwXwXwXwXwXwXwXwXwXwXwXwXwXwXwXwXwXwXwXwXwXwXwXwXwXwXwXwXwXwXwXwXwXwXwXwXwXwXwXwXwXwXwX-Xy.<.<.<.<.<.<.<.<.<.<.<.q.g N N N N N N N N N N N N B                                   ",
"                                  <.<.<.<.<.<.<.<.<.<.<.<.<.<.<.<.<.<.<.<.<.<.<.<.<.<.1.#XwX2XN.S S G G G G G G G G G G G G G G G G G G G G G G G G G G G G S S G V.3XwXwXwXwXwXwXwXwXwXwXwXwXwXwXwXwXwXwXwXwXwXwXwXwXwXwXwXwXwXwXwXwXwXwXwXwXwXwXwXwXwXwXwXwXwXwXwXwXwXwXwXwXwXwXwXwXwXwXwXwXwXwXwXwXwXwXwXwXwXwXwXwXwXwXwXwXwXwXwXwXwXwXwXwXwXwXwXwXwXwXwXwXwXwXwXwXwXwXwXwXwXwXwXwXwXwXwXwXwXwXwXwXwXwXwXwXwXwXwXwXwXwXwXwXwXwXwXwXT.<.<.<.<.<.<.<.<.<.<.<.:.9 B N N N N N N N N N N N N B                                   ",
"                                    <.<.<.<.<.<.<.<.<.<.<.<.<.<.<.<.<.<.<.<.<.<.<.<.<.,.j.0XwX|.P S G G G G G G G G G G G G G G G G G G G G G G G G G G G S S P A.2XwXwXwXwXwXwXwXwXwXwXwXwXwXwXwXwXwXwXwXwXwXwXwXwXwXwXwXwXwXwXwXwXwXwXwXwXwXwXwXwXwXwXwXwXwXwXwXwXwXwXwXwXwXwXwXwXwXwXwXwXwXwXwXwXwXwXwXwXwXwXwXwXwXwXwXwXwXwXwXwXwXwXwXwXwXwXwXwXwXwXwXwXwXwXwXwXwXwXwXwXwXwXwXwXwXwXwXwXwXwXwXwXwXwXwXwXwXwXwXwXwXwXwXwXwXwXwXwX-Xt.<.<.<.<.<.<.<.<.<.<.<.*.d N N N N N N N N N N N N B                                     ",
"                                    <.<.<.<.<.<.<.<.<.<.<.<.<.<.<.<.<.<.<.<.<.<.<.<.<.<.1._.wX2XM.S S G S G G G G G G G G G G G G G G G G G G G G S S G S S I G.9XwXwXwXwXwXwXwXwXwXwXwXwXwXwXwXwXwXwXwXwXwXwXwXwXwXwXwXwXwXwXwXwXwXwXwXwXwXwXwXwXwXwXwXwXwXwXwXwXwXwXwXwXwXwXwXwXwXwXwXwXwXwXwXwXwXwXwXwXwXwXwXwXwXwXwXwXwXwXwXwXwXwXwXwXwXwXwXwXwXwXwXwXwXwXwXwXwXwXwXwXwXwXwXwXwXwXwXwXwXwXwXwXwXwXwXwXwXwXwXwXwXwXwXwXwXwXwXwXwXT.<.<.<.<.<.<.<.<.<.<.<.<.c.B N N N N N N N N N N N N B                                     ",
"                                    <.<.<.<.<.<.<.<.<.<.<.<.<.<.<.<.<.<.<.<.<.<.<.<.<.<.,.g.6XwX XP S G G S G G G G G G G G G G G G G G G G S S G S S S S W |.wXwXwXwXwXwXwXwXwXwXwXwXwXwXwXwXwXwXwXwXwXwXwXwXwXwXwXwXwXwXwXwXwXwXwXwXwXwXwXwXwXwXwXwXwXwXwXwXwXwXwXwXwXwXwXwXwXwXwXwXwXwXwXwXwXwXwXwXwXwXwXwXwXwXwXwXwXwXwXwXwXwXwXwXwXwXwXwXwXwXwXwXwXwXwXwXwXwXwXwXwXwXwXwXwXwXwXwXwXwXwXwXwXwXwXwXwXwXwXwXwXwXwXwXwXwXwXwXwXwX*Xe.<.<.<.<.<.<.<.<.<.<.<.&.c N N N N N N N N N N N N N                                       ",
"                                      <.<.<.<.<.<.<.<.<.<.<.<.<.<.<.<.<.<.<.<.<.<.<.<.<.<.<./.wX9XB.G S G S G G G G G G G G G G G G G G G S G G G G S G R XXwXwXwXwXwXwXwXwXwXwXwXwXwXwXwXwXwXwXwXwXwXwXwXwXwXwXwXwXwXwXwXwXwXwXwXwXwXwXwXwXwXwXwXwXwXwXwXwXwXwXwXwXwXwXwXwXwXwXwXwXwXwXwXwXwXwXwXwXwXwXwXwXwXwXwXwXwXwXwXwXwXwXwXwXwXwXwXwXwXwXwXwXwXwXwXwXwXwXwXwXwXwXwXwXwXwXwXwXwXwXwXwXwXwXwXwXwXwXwXwXwXwXwXwXwXwXwXwXwXwXqXK.<.<.<.<.<.<.<.<.<.<.<.<.x.z N N N N N N N N N N N N B                                       ",
"                                      <.<.<.<.<.<.<.<.<.<.<.<.<.<.<.<.<.<.<.<.<.<.<.<.<.<.,.a.4XwXoXI S G S G G G G G G G G G G G G G G G S G G G S G N.OXwXwXwXwXwXwXwXwXwXwXwXwXwXwXwXwXwXwXwXwXwXwXwXwXwXwXwXwXwXwXwXwXwXwXwXwXwXwXwXwXwXwXwXwXwXwXwXwXwXwXwXwXwXwXwXwXwXwXwXwXwXwXwXwXwXwXwXwXwXwXwXwXwXwXwXwXwXwXwXwXwXwXwXwXwXwXwXwXwXwXwXwXwXwXwXwXwXwXwXwXwXwXwXwXwXwXwXwXwXwXwXwXwXwXwXwXwXwXwXwXwXwXwXwXwXwXwXwXwXwXwX#X3.<.<.<.<.<.<.<.<.<.<.<.&.y N N N N N N N N N N N N N B                                       ",
"                                        <.<.<.<.<.<.<.<.<.<.<.<.<.<.<.<.<.<.<.<.<.<.<.<.<.<.<.T.wXwXA.G S G S G G G G G G G G G G G G S S G G G S G B.1XwXwXwXwXwXwXwXwXwXwXwXwXwXwXwXwXwXwXwXwXwXwXwXwXwXwXwXwXwXwXwXwXwXwXwXwXwXwXwXwXwXwXwXwXwXwXwXwXwXwXwXwXwXwXwXwXwXwXwXwXwXwXwXwXwXwXwXwXwXwXwXwXwXwXwXwXwXwXwXwXwXwXwXwXwXwXwXwXwXwXwXwXwXwXwXwXwXwXwXwXwXwXwXwXwXwXwXwXwXwXwXwXwXwXwXwXwXwXwXwXwXwXwXwXwXwXwXwXwXwXwX7Xh.<.<.<.<.<.<.<.<.<.<.<.<.x.z N N N N N N N N N N N N B                                         ",
"                                        <.<.<.<.<.<.<.<.<.<.<.<.<.<.<.<.<.<.<.<.<.<.<.<.<.<.<.r.&XwX3XR S G S G G G G G G G G G G G G S S G G S P A.2XwXwXwXwXwXwXwXwXwXwXwXwXwXwXwXwXwXwXwXwXwXwXwXwXwXwXwXwXwXwXwXwXwXwXwXwXwXwXwXwXwXwXwXwXwXwXwXwXwXwXwXwXwXwXwXwXwXwXwXwXwXwXwXwXwXwXwXwXwXwXwXwXwXwXwXwXwXwXwXwXwXwXwXwXwXwXwXwXwXwXwXwXwXwXwXwXwXwXwXwXwXwXwXwXwXwXwXwXwXwXwXwXwXwXwXwXwXwXwXwXwXwXwXwXwXwXwXwXwXwXwXwX^.1.<.<.<.<.<.<.<.<.<.<.<.&.c N N N N N N N N N N N N N B                                         ",
"                                          <.<.<.<.<.<.<.<.<.<.<.<.<.<.<.<.<.<.<.<.<.<.<.<.<.<.<.j.0XwX|.P S S S G G G G G G G G G G G G S S S P S.9XwXwXwXwXwXwXwXwXwXwXwXwXwXwXwXwXwXwXwXwXwXwXwXwXwXwXwXwXwXwXwXwXwXwXwXwXwXwXwXwXwXwXwXwXwXwXwXwXwXwXwXwXwXwXwXwXwXwXwXwXwXwXwXwXwXwXwXwXwXwXwXwXwXwXwXwXwXwXwXwXwXwXwXwXwXwXwXwXwXwXwXwXwXwXwXwXwXwXwXwXwXwXwXwXwXwXwXwXwXwXwXwXwXwXwXwXwXwXwXwXwXwXwXwXwXwXwXwXwXwXwXwX-Xt.<.<.<.<.<.<.<.<.<.<.<.<.5 V N N N N N N N N N N N N N                                           ",
"                                          <.<.<.<.<.<.<.<.<.<.<.<.<.<.<.<.<.<.<.<.<.<.<.<.<.<.<.1.^.wX9XV.G S G G S G G G G G G G G G S S S I F.wXwXwXwXwXwXwXwXwXwXwXwXwXwXwXwXwXwXwXwXwXwXwXwXwXwXwXwXwXwXwXwXwXwXwXwXwXwXwXwXwXwXwXwXwXwXwXwXwXwXwXwXwXwXwXwXwXwXwXwXwXwXwXwXwXwXwXwXwXwXwXwXwXwXwXwXwXwXwXwXwXwXwXwXwXwXwXwXwXwXwXwXwXwXwXwXwXwXwXwXwXwXwXwXwXwXwXwXwXwXwXwXwXwXwXwXwXwXwXwXwXwXwXwXwXwXwXwXwXwXwXwXwX0XJ.<.<.<.<.<.<.<.<.<.<.<.<.*.f N N N N N N N N N N N N N B                                           ",
"                                            <.<.<.<.<.<.<.<.<.<.<.<.<.<.<.<.<.<.<.<.<.<.<.<.<.<.<.t.*XwX1XR S S G G G G G G G G G G G S S E .XwXwXwXwXwXwXwXwXwXwXwXwXwXwXwXwXwXwXwXwXwXwXwXwXwXwXwXwXwXwXwXwXwXwXwXwXwXwXwXwXwXwXwXwXwXwXwXwXwXwXwXwXwXwXwXwXwXwXwXwXwXwXwXwXwXwXwXwXwXwXwXwXwXwXwXwXwXwXwXwXwXwXwXwXwXwXwXwXwXwXwXwXwXwXwXwXwXwXwXwXwXwXwXwXwXwXwXwXwXwXwXwXwXwXwXwXwXwXwXwXwXwXwXwXwXwXwXwXwXwXwXwXwXwX_.1.<.<.<.<.<.<.<.<.<.<.<.:.9 B N N N N N N N N N N N N B                                             ",
"                                            <.<.<.<.<.<.<.<.<.<.<.<.<.<.<.<.<.<.<.<.<.<.<.<.<.<.<.<.j.7XwX|.P S G G G G G G G G G G S G m.oXwXwXwXwXwXwXwXwXwXwXwXwXwXwXwXwXwXwXwXwXwXwXwXwXwXwXwXwXwXwXwXwXwXwXwXwXwXwXwXwXwXwXwXwXwXwXwXwXwXwXwXwXwXwXwXwXwXwXwXwXwXwXwXwXwXwXwXwXwXwXwXwXwXwXwXwXwXwXwXwXwXwXwXwXwXwXwXwXwXwXwXwXwXwXwXwXwXwXwXwXwXwXwXwXwXwXwXwXwXwXwXwXwXwXwXwXwXwXwXwXwXwXwXwXwXwXwXwXwXwXwXwXwXwX-Xa.<.<.<.<.<.<.<.<.<.<.<.<.0.h N N N N N N N N N N N N N B                                             ",
"                                              <.<.<.<.<.<.<.<.<.<.<.<.<.<.<.<.<.<.<.<.<.<.<.<.<.<.<.1.!.wX9XA.G S G G G G G S G G S G M.1XwXwXwXwXwXwXwXwXwXwXwXwXwXwXwXwXwXwXwXwXwXwXwXwXwXwXwXwXwXwXwXwXwXwXwXwXwXwXwXwXwXwXwXwXwXwXwXwXwXwXwXwXwXwXwXwXwXwXwXwXwXwXwXwXwXwXwXwXwXwXwXwXwXwXwXwXwXwXwXwXwXwXwXwXwXwXwXwXwXwXwXwXwXwXwXwXwXwXwXwXwXwXwXwXwXwXwXwXwXwXwXwXwXwXwXwXwXwXwXwXwXwXwXwXwXwXwXwXwXwXwXwXwXwX0XP.<.<.<.<.<.<.<.<.<.<.<.<.>.a N N N N N N N N N N N N N B                                               ",
"                                              <.<.<.<.<.<.<.<.<.<.<.<.<.<.<.<.<.<.<.<.<.<.<.<.<.<.<.<.r.%XwX3XN.S S G G G G G G S G V.3XwXwXwXwXwXwXwXwXwXwXwXwXwXwXwXwXwXwXwXwXwXwXwXwXwXwXwXwXwXwXwXwXwXwXwXwXwXwXwXwXwXwXwXwXwXwXwXwXwXwXwXwXwXwXwXwXwXwXwXwXwXwXwXwXwXwXwXwXwXwXwXwXwXwXwXwXwXwXwXwXwXwXwXwXwXwXwXwXwXwXwXwXwXwXwXwXwXwXwXwXwXwXwXwXwXwXwXwXwXwXwXwXwXwXwXwXwXwXwXwXwXwXwXwXwXwXwXwXwXwXwXwXwXwXwX^.1.<.<.<.<.<.<.<.<.<.<.<.<.8.g N N N N N N N N N N N N N B                                               ",
"                                                <.<.<.<.<.<.<.<.<.<.<.<.<.<.<.<.<.<.<.<.<.<.<.<.<.<.<.<.g.4XwXoXW S S S G G S S P S.9XwXwXwXwXwXwXwXwXwXwXwXwXwXwXwXwXwXwXwXwXwXwXwXwXwXwXwXwXwXwXwXwXwXwXwXwXwXwXwXwXwXwXwXwXwXwXwXwXwXwXwXwXwXwXwXwXwXwXwXwXwXwXwXwXwXwXwXwXwXwXwXwXwXwXwXwXwXwXwXwXwXwXwXwXwXwXwXwXwXwXwXwXwXwXwXwXwXwXwXwXwXwXwXwXwXwXwXwXwXwXwXwXwXwXwXwXwXwXwXwXwXwXwXwXwXwXwXwXwXwXwXwXwXwXwX%X3.<.<.<.<.<.<.<.<.<.<.<.<.*.y N N N N N N N N N N N N N B                                                 ",
"                                                <.<.<.<.<.<.<.<.<.<.<.<.<.<.<.<.<.<.<.<.<.<.<.<.<.<.<.<.<.L.qXwXG.P S G S S S I G.9XwXwXwXwXwXwXwXwXwXwXwXwXwXwXwXwXwXwXwXwXwXwXwXwXwXwXwXwXwXwXwXwXwXwXwXwXwXwXwXwXwXwXwXwXwXwXwXwXwXwXwXwXwXwXwXwXwXwXwXwXwXwXwXwXwXwXwXwXwXwXwXwXwXwXwXwXwXwXwXwXwXwXwXwXwXwXwXwXwXwXwXwXwXwXwXwXwXwXwXwXwXwXwXwXwXwXwXwXwXwXwXwXwXwXwXwXwXwXwXwXwXwXwXwXwXwXwXwXwXwXwXwXwXwXwX4Xd.<.<.<.<.<.<.<.<.<.<.<.<.:.9 B N N N N N N N N N N N N N B                                                 ",
"                                                  <.<.<.<.<.<.<.<.<.<.<.<.<.<.<.<.<.<.<.<.<.<.<.<.<.<.<.<.1./.wX9XA.G S S S Y  XwXwXwXwXwXwXwXwXwXwXwXwXwXwXwXwXwXwXwXwXwXwXwXwXwXwXwXwXwXwXwXwXwXwXwXwXwXwXwXwXwXwXwXwXwXwXwXwXwXwXwXwXwXwXwXwXwXwXwXwXwXwXwXwXwXwXwXwXwXwXwXwXwXwXwXwXwXwXwXwXwXwXwXwXwXwXwXwXwXwXwXwXwXwXwXwXwXwXwXwXwXwXwXwXwXwXwXwXwXwXwXwXwXwXwXwXwXwXwXwXwXwXwXwXwXwXwXwXwXwXwXwXwXwXwXwX0XP.<.<.<.<.<.<.<.<.<.<.<.<.<.7.k N N N N N N N N N N N N N B                                                   ",
"                                                  <.<.<.<.<.<.<.<.<.<.<.<.<.<.<.<.<.<.<.<.<.<.<.<.<.<.<.<.<.t.#XwX2XB.G G R oXwXwXwXwXwXwXwXwXwXwXwXwXwXwXwXwXwXwXwXwXwXwXwXwXwXwXwXwXwXwXwXwXwXwXwXwXwXwXwXwXwXwXwXwXwXwXwXwXwXwXwXwXwXwXwXwXwXwXwXwXwXwXwXwXwXwXwXwXwXwXwXwXwXwXwXwXwXwXwXwXwXwXwXwXwXwXwXwXwXwXwXwXwXwXwXwXwXwXwXwXwXwXwXwXwXwXwXwXwXwXwXwXwXwXwXwXwXwXwXwXwXwXwXwXwXwXwXwXwXwXwXwXwXwXwXwXqXQ.1.<.<.<.<.<.<.<.<.<.<.<.<.&.y N N N N N N N N N N N N N N B                                                   ",
"                                                    <.<.<.<.<.<.<.<.<.<.<.<.<.<.<.<.<.<.<.<.<.<.<.<.<.<.<.<.,.i.=XwX1XN.M.OXwXwXwXwXwXwXwXwXwXwXwXwXwXwXwXwXwXwXwXwXwXwXwXwXwXwXwXwXwXwXwXwXwXwXwXwXwXwXwXwXwXwXwXwXwXwXwXwXwXwXwXwXwXwXwXwXwXwXwXwXwXwXwXwXwXwXwXwXwXwXwXwXwXwXwXwXwXwXwXwXwXwXwXwXwXwXwXwXwXwXwXwXwXwXwXwXwXwXwXwXwXwXwXwXwXwXwXwXwXwXwXwXwXwXwXwXwXwXwXwXwXwXwXwXwXwXwXwXwXwXwXwXwXwXwXwXwX_.3.<.<.<.<.<.<.<.<.<.<.<.<.:.9 V N N N N N N N N N N N N N B                                                     ",
"                                                    <.<.<.<.<.<.<.<.<.<.<.<.<.<.<.<.<.<.<.<.<.<.<.<.<.<.<.<.<.,.h.4XwX3X2XwXwXwXwXwXwXwXwXwXwXwXwXwXwXwXwXwXwXwXwXwXwXwXwXwXwXwXwXwXwXwXwXwXwXwXwXwXwXwXwXwXwXwXwXwXwXwXwXwXwXwXwXwXwXwXwXwXwXwXwXwXwXwXwXwXwXwXwXwXwXwXwXwXwXwXwXwXwXwXwXwXwXwXwXwXwXwXwXwXwXwXwXwXwXwXwXwXwXwXwXwXwXwXwXwXwXwXwXwXwXwXwXwXwXwXwXwXwXwXwXwXwXwXwXwXwXwXwXwXwXwXwXwXwXwXwXwX%Xy.<.<.<.<.<.<.<.<.<.<.<.<.<.7.g N N N N N N N N N N N N N N                                                       ",
"                                                      <.<.<.<.<.<.<.<.<.<.<.<.<.<.<.<.<.<.<.<.<.<.<.<.<.<.<.<.<.<.J.6XwXwXwXwXwXwXwXwXwXwXwXwXwXwXwXwXwXwXwXwXwXwXwXwXwXwXwXwXwXwXwXwXwXwXwXwXwXwXwXwXwXwXwXwXwXwXwXwXwXwXwXwXwXwXwXwXwXwXwXwXwXwXwXwXwXwXwXwXwXwXwXwXwXwXwXwXwXwXwXwXwXwXwXwXwXwXwXwXwXwXwXwXwXwXwXwXwXwXwXwXwXwXwXwXwXwXwXwXwXwXwXwXwXwXwXwXwXwXwXwXwXwXwXwXwXwXwXwXwXwXwXwXwXwXwXwXwXwX=Xa.<.<.<.<.<.<.<.<.<.<.<.<.<.*.v N N N N N N N N N N N N N N B                                                       ",
"                                                        <.<.<.<.<.<.<.<.<.<.<.<.<.<.<.<.<.<.<.<.<.<.<.<.<.<.<.<.<.<.K.0XwXwXwXwXwXwXwXwXwXwXwXwXwXwXwXwXwXwXwXwXwXwXwXwXwXwXwXwXwXwXwXwXwXwXwXwXwXwXwXwXwXwXwXwXwXwXwXwXwXwXwXwXwXwXwXwXwXwXwXwXwXwXwXwXwXwXwXwXwXwXwXwXwXwXwXwXwXwXwXwXwXwXwXwXwXwXwXwXwXwXwXwXwXwXwXwXwXwXwXwXwXwXwXwXwXwXwXwXwXwXwXwXwXwXwXwXwXwXwXwXwXwXwXwXwXwXwXwXwXwXwXwXwXwXwXwX>Xg.,.<.<.<.<.<.<.<.<.<.<.<.<.>.e B N N N N N N N N N N N N N B                                                         ",
"                                                        <.<.<.<.<.<.<.<.<.<.<.<.<.<.<.<.<.<.<.<.<.<.<.<.<.<.<.<.<.<.1.R.qXwXwXwXwXwXwXwXwXwXwXwXwXwXwXwXwXwXwXwXwXwXwXwXwXwXwXwXwXwXwXwXwXwXwXwXwXwXwXwXwXwXwXwXwXwXwXwXwXwXwXwXwXwXwXwXwXwXwXwXwXwXwXwXwXwXwXwXwXwXwXwXwXwXwXwXwXwXwXwXwXwXwXwXwXwXwXwXwXwXwXwXwXwXwXwXwXwXwXwXwXwXwXwXwXwXwXwXwXwXwXwXwXwXwXwXwXwXwXwXwXwXwXwXwXwXwXwXwXwXwXwXwXwXwX4Xj.<.<.<.<.<.<.<.<.<.<.<.<.<.:.5 z N N N N N N N N N N N N N N A                                                         ",
"                                                          <.<.<.<.<.<.<.<.<.<.<.<.<.<.<.<.<.<.<.<.<.<.<.<.<.<.<.<.<.<.1.E.qXwXwXwXwXwXwXwXwXwXwXwXwXwXwXwXwXwXwXwXwXwXwXwXwXwXwXwXwXwXwXwXwXwXwXwXwXwXwXwXwXwXwXwXwXwXwXwXwXwXwXwXwXwXwXwXwXwXwXwXwXwXwXwXwXwXwXwXwXwXwXwXwXwXwXwXwXwXwXwXwXwXwXwXwXwXwXwXwXwXwXwXwXwXwXwXwXwXwXwXwXwXwXwXwXwXwXwXwXwXwXwXwXwXwXwXwXwXwXwXwXwXwXwXwXwXwXwXwXwXwXwXwX6XJ.<.<.<.<.<.<.<.<.<.<.<.<.<.<.7.k N N N N N N N N N N N N N N B                                                           ",
"                                                            <.<.<.<.<.<.<.<.<.<.<.<.<.<.<.<.<.<.<.<.<.<.<.<.<.<.<.<.<.<.1.Q.qXwXwXwXwXwXwXwXwXwXwXwXwXwXwXwXwXwXwXwXwXwXwXwXwXwXwXwXwXwXwXwXwXwXwXwXwXwXwXwXwXwXwXwXwXwXwXwXwXwXwXwXwXwXwXwXwXwXwXwXwXwXwXwXwXwXwXwXwXwXwXwXwXwXwXwXwXwXwXwXwXwXwXwXwXwXwXwXwXwXwXwXwXwXwXwXwXwXwXwXwXwXwXwXwXwXwXwXwXwXwXwXwXwXwXwXwXwXwXwXwXwXwXwXwXwXwXwXwXwXwX6XP.<.<.<.<.<.<.<.<.<.<.<.<.<.<.0.v N N N N N N N N N N N N N N B                                                             ",
"                                                            <.<.<.<.<.<.<.<.<.<.<.<.<.<.<.<.<.<.<.<.<.<.<.<.<.<.<.<.<.<.<.1.Q.qXwXwXwXwXwXwXwXwXwXwXwXwXwXwXwXwXwXwXwXwXwXwXwXwXwXwXwXwXwXwXwXwXwXwXwXwXwXwXwXwXwXwXwXwXwXwXwXwXwXwXwXwXwXwXwXwXwXwXwXwXwXwXwXwXwXwXwXwXwXwXwXwXwXwXwXwXwXwXwXwXwXwXwXwXwXwXwXwXwXwXwXwXwXwXwXwXwXwXwXwXwXwXwXwXwXwXwXwXwXwXwXwXwXwXwXwXwXwXwXwXwXwXwXwXwXwXwXwX4XJ.<.<.<.<.<.<.<.<.<.<.<.<.<.<.&.u B N N N N N N N N N N N N N N A                                                             ",
"                                                              <.<.<.<.<.<.<.<.<.<.<.<.<.<.<.<.<.<.<.<.<.<.<.<.<.<.<.<.<.<.<.1.Q.qXwXwXwXwXwXwXwXwXwXwXwXwXwXwXwXwXwXwXwXwXwXwXwXwXwXwXwXwXwXwXwXwXwXwXwXwXwXwXwXwXwXwXwXwXwXwXwXwXwXwXwXwXwXwXwXwXwXwXwXwXwXwXwXwXwXwXwXwXwXwXwXwXwXwXwXwXwXwXwXwXwXwXwXwXwXwXwXwXwXwXwXwXwXwXwXwXwXwXwXwXwXwXwXwXwXwXwXwXwXwXwXwXwXwXwXwXwXwXwXwXwXwXwXwXwXwX4Xj.;.<.<.<.<.<.<.<.<.<.<.<.<.<.>.p B N N N N N N N N N N N N N N B                                                               ",
"                                                                <.<.<.<.<.<.<.<.<.<.<.<.<.<.<.<.<.<.<.<.<.<.<.<.<.<.<.<.<.<.<.1.T.0XwXwXwXwXwXwXwXwXwXwXwXwXwXwXwXwXwXwXwXwXwXwXwXwXwXwXwXwXwXwXwXwXwXwXwXwXwXwXwXwXwXwXwXwXwXwXwXwXwXwXwXwXwXwXwXwXwXwXwXwXwXwXwXwXwXwXwXwXwXwXwXwXwXwXwXwXwXwXwXwXwXwXwXwXwXwXwXwXwXwXwXwXwXwXwXwXwXwXwXwXwXwXwXwXwXwXwXwXwXwXwXwXwXwXwXwXwXwXwXwXwXwXwXwX-Xl.<.<.<.<.<.<.<.<.<.<.<.<.<.<.:.8 z N N N N N N N N N N N N N N B                                                                 ",
"                                                                <.<.<.<.<.<.<.<.<.<.<.<.<.<.<.<.<.<.<.<.<.<.<.<.<.<.<.<.<.<.<.<.<.L.6XwXwXwXwXwXwXwXwXwXwXwXwXwXwXwXwXwXwXwXwXwXwXwXwXwXwXwXwXwXwXwXwXwXwXwXwXwXwXwXwXwXwXwXwXwXwXwXwXwXwXwXwXwXwXwXwXwXwXwXwXwXwXwXwXwXwXwXwXwXwXwXwXwXwXwXwXwXwXwXwXwXwXwXwXwXwXwXwXwXwXwXwXwXwXwXwXwXwXwXwXwXwXwXwXwXwXwXwXwXwXwXwXwXwXwXwXwXwXwXwXwXwX=Xp.<.<.<.<.<.<.<.<.<.<.<.<.<.<.:.x.g N N N N N N N N N N N N N N N A                                                                 ",
"                                                                  <.<.<.<.<.<.<.<.<.<.<.<.<.<.<.<.<.<.<.<.<.<.<.<.<.<.<.<.<.<.<.<.<.j.4XwXwXwXwXwXwXwXwXwXwXwXwXwXwXwXwXwXwXwXwXwXwXwXwXwXwXwXwXwXwXwXwXwXwXwXwXwXwXwXwXwXwXwXwXwXwXwXwXwXwXwXwXwXwXwXwXwXwXwXwXwXwXwXwXwXwXwXwXwXwXwXwXwXwXwXwXwXwXwXwXwXwXwXwXwXwXwXwXwXwXwXwXwXwXwXwXwXwXwXwXwXwXwXwXwXwXwXwXwXwXwXwXwXwXwXwXwXwXwXwX%Xp.<.<.<.<.<.<.<.<.<.<.<.<.<.<.<.8.k N N N N N N N N N N N N N N N B                                                                   ",
"                                                                    <.<.<.<.<.<.<.<.<.<.<.<.<.<.<.<.<.<.<.<.<.<.<.<.<.<.<.<.<.<.<.<.<.d.&XwXwXwXwXwXwXwXwXwXwXwXwXwXwXwXwXwXwXwXwXwXwXwXwXwXwXwXwXwXwXwXwXwXwXwXwXwXwXwXwXwXwXwXwXwXwXwXwXwXwXwXwXwXwXwXwXwXwXwXwXwXwXwXwXwXwXwXwXwXwXwXwXwXwXwXwXwXwXwXwXwXwXwXwXwXwXwXwXwXwXwXwXwXwXwXwXwXwXwXwXwXwXwXwXwXwXwXwXwXwXwXwXwXwXwXwXwXqX).y.<.<.<.<.<.<.<.<.<.<.<.<.<.<.<.8.h N N N N N N N N N N N N N N N B                                                                     ",
"                                                                      <.<.<.<.<.<.<.<.<.<.<.<.<.<.<.<.<.<.<.<.<.<.<.<.<.<.<.<.<.<.<.<.<.t.].qXwXwXwXwXwXwXwXwXwXwXwXwXwXwXwXwXwXwXwXwXwXwXwXwXwXwXwXwXwXwXwXwXwXwXwXwXwXwXwXwXwXwXwXwXwXwXwXwXwXwXwXwXwXwXwXwXwXwXwXwXwXwXwXwXwXwXwXwXwXwXwXwXwXwXwXwXwXwXwXwXwXwXwXwXwXwXwXwXwXwXwXwXwXwXwXwXwXwXwXwXwXwXwXwXwXwXwXwXwXwXwXwXwXwX0XQ.3.,.<.<.<.<.<.<.<.<.<.<.<.<.<.<.7.d N N N N N N N N N N N N N N N B                                                                       ",
"                                                                        <.<.<.<.<.<.<.<.<.<.<.<.<.<.<.<.<.<.<.<.<.<.<.<.<.<.<.<.<.<.<.<.<.3.Q.7XwXwXwXwXwXwXwXwXwXwXwXwXwXwXwXwXwXwXwXwXwXwXwXwXwXwXwXwXwXwXwXwXwXwXwXwXwXwXwXwXwXwXwXwXwXwXwXwXwXwXwXwXwXwXwXwXwXwXwXwXwXwXwXwXwXwXwXwXwXwXwXwXwXwXwXwXwXwXwXwXwXwXwXwXwXwXwXwXwXwXwXwXwXwXwXwXwXwXwXwXwXwXwXwXwXwXwXwXwXwXwXwX4XP.1.<.<.<.<.<.<.<.<.<.<.<.<.<.<.<.7.d N N N N N N N N N N N N N N N B                                                                         ",
"                                                                        <.<.<.<.<.<.<.<.<.<.<.<.<.<.<.<.<.<.<.<.<.<.<.<.<.<.<.<.<.<.<.<.<.<.<.J.4XwXwXwXwXwXwXwXwXwXwXwXwXwXwXwXwXwXwXwXwXwXwXwXwXwXwXwXwXwXwXwXwXwXwXwXwXwXwXwXwXwXwXwXwXwXwXwXwXwXwXwXwXwXwXwXwXwXwXwXwXwXwXwXwXwXwXwXwXwXwXwXwXwXwXwXwXwXwXwXwXwXwXwXwXwXwXwXwXwXwXwXwXwXwXwXwXwXwXwXwXwXwXwXwXwXwXwXwXwXwX%Xd.<.<.<.<.<.<.<.<.<.<.<.<.<.<.<.<.5.d N N N N N N N N N N N N N N N N A                                                                         ",
"                                                                          <.<.<.<.<.<.<.<.<.<.<.<.<.<.<.<.<.<.<.<.<.<.<.<.<.<.<.<.<.<.<.<.<.<.<.p.#XwXwXwXwXwXwXwXwXwXwXwXwXwXwXwXwXwXwXwXwXwXwXwXwXwXwXwXwXwXwXwXwXwXwXwXwXwXwXwXwXwXwXwXwXwXwXwXwXwXwXwXwXwXwXwXwXwXwXwXwXwXwXwXwXwXwXwXwXwXwXwXwXwXwXwXwXwXwXwXwXwXwXwXwXwXwXwXwXwXwXwXwXwXwXwXwXwXwXwXwXwXwXwXwXwXwXwX0X!.3.<.<.<.<.<.<.<.<.<.<.<.<.<.<.<.<.7.d N N N N N N N N N N N N N N N N B                                                                           ",
"                                                                            <.<.<.<.<.<.<.<.<.<.<.<.<.<.<.<.<.<.<.<.<.<.<.<.<.<.<.<.<.<.<.<.<.<.<.3.E.6XwXwXwXwXwXwXwXwXwXwXwXwXwXwXwXwXwXwXwXwXwXwXwXwXwXwXwXwXwXwXwXwXwXwXwXwXwXwXwXwXwXwXwXwXwXwXwXwXwXwXwXwXwXwXwXwXwXwXwXwXwXwXwXwXwXwXwXwXwXwXwXwXwXwXwXwXwXwXwXwXwXwXwXwXwXwXwXwXwXwXwXwXwXwXwXwXwXwXwXwXwXwXwXwX=Xl.<.<.<.<.<.<.<.<.<.<.<.<.<.<.<.<.<.8.d N N N N N N N N N N N N N N N N B                                                                             ",
"                                                                              <.<.<.<.<.<.<.<.<.<.<.<.<.<.<.<.<.<.<.<.<.<.<.<.<.<.<.<.<.<.<.<.<.<.<.<.g.#XwXwXwXwXwXwXwXwXwXwXwXwXwXwXwXwXwXwXwXwXwXwXwXwXwXwXwXwXwXwXwXwXwXwXwXwXwXwXwXwXwXwXwXwXwXwXwXwXwXwXwXwXwXwXwXwXwXwXwXwXwXwXwXwXwXwXwXwXwXwXwXwXwXwXwXwXwXwXwXwXwXwXwXwXwXwXwXwXwXwXwXwXwXwXwXwXwXwXwXwXwX0X(.i.;.<.<.<.<.<.<.<.<.<.<.<.<.<.<.<.<.8.h N N N N N N N N N N N N N N N N B                                                                               ",
"                                                                                <.<.<.<.<.<.<.<.<.<.<.<.<.<.<.<.<.<.<.<.<.<.<.<.<.<.<.<.<.<.<.<.<.<.<.;.3.T.4XwXwXwXwXwXwXwXwXwXwXwXwXwXwXwXwXwXwXwXwXwXwXwXwXwXwXwXwXwXwXwXwXwXwXwXwXwXwXwXwXwXwXwXwXwXwXwXwXwXwXwXwXwXwXwXwXwXwXwXwXwXwXwXwXwXwXwXwXwXwXwXwXwXwXwXwXwXwXwXwXwXwXwXwXwXwXwXwXwXwXwXwXwXwXwXwXwXwX=XJ.1.<.<.<.<.<.<.<.<.<.<.<.<.<.<.<.<.:.x.k N N N N N N N N N N N N N N N N B                                                                                 ",
"                                                                                  <.<.<.<.<.<.<.<.<.<.<.<.<.<.<.<.<.<.<.<.<.<.<.<.<.<.<.<.<.<.<.<.<.<.<.<.<.d._.0XwXwXwXwXwXwXwXwXwXwXwXwXwXwXwXwXwXwXwXwXwXwXwXwXwXwXwXwXwXwXwXwXwXwXwXwXwXwXwXwXwXwXwXwXwXwXwXwXwXwXwXwXwXwXwXwXwXwXwXwXwXwXwXwXwXwXwXwXwXwXwXwXwXwXwXwXwXwXwXwXwXwXwXwXwXwXwXwXwXwXwXwXwXwX6X!.t.<.<.<.<.<.<.<.<.<.<.<.<.<.<.<.<.<.>.8 g N N N N N N N N N N N N N N N N B                                                                                   ",
"                                                                                    <.<.<.<.<.<.<.<.<.<.<.<.<.<.<.<.<.<.<.<.<.<.<.<.<.<.<.<.<.<.<.<.<.<.<.<.<.1.J.*XwXwXwXwXwXwXwXwXwXwXwXwXwXwXwXwXwXwXwXwXwXwXwXwXwXwXwXwXwXwXwXwXwXwXwXwXwXwXwXwXwXwXwXwXwXwXwXwXwXwXwXwXwXwXwXwXwXwXwXwXwXwXwXwXwXwXwXwXwXwXwXwXwXwXwXwXwXwXwXwXwXwXwXwXwXwXwXwXwXwXwXqX[.g.<.<.<.<.<.<.<.<.<.<.<.<.<.<.<.<.<.<.&.p z N N N N N N N N N N N N N N N N B                                                                                     ",
"                                                                                      <.<.<.<.<.<.<.<.<.<.<.<.<.<.<.<.<.<.<.<.<.<.<.<.<.<.<.<.<.<.<.<.<.<.<.<.<.<.t.R.4XwXwXwXwXwXwXwXwXwXwXwXwXwXwXwXwXwXwXwXwXwXwXwXwXwXwXwXwXwXwXwXwXwXwXwXwXwXwXwXwXwXwXwXwXwXwXwXwXwXwXwXwXwXwXwXwXwXwXwXwXwXwXwXwXwXwXwXwXwXwXwXwXwXwXwXwXwXwXwXwXwXwXwXwXwXwXwXqX*XP.1.,.<.<.<.<.<.<.<.<.<.<.<.<.<.<.<.<.<.0.i B N N N N N N N N N N N N N N N N B                                                                                       ",
"                                                                                        <.<.<.<.<.<.<.<.<.<.<.<.<.<.<.<.<.<.<.<.<.<.<.<.<.<.<.<.<.<.<.<.<.<.<.<.<.<.<.i.!.5XwXwXwXwXwXwXwXwXwXwXwXwXwXwXwXwXwXwXwXwXwXwXwXwXwXwXwXwXwXwXwXwXwXwXwXwXwXwXwXwXwXwXwXwXwXwXwXwXwXwXwXwXwXwXwXwXwXwXwXwXwXwXwXwXwXwXwXwXwXwXwXwXwXwXwXwXwXwXwXwXwXwXwXwX=XI.e.<.<.<.<.<.<.<.<.<.<.<.<.<.<.<.<.<.<.:.8.d N N N N N N N N N N N N N N N N N B Z                                                                                       ",
"                                                                                          <.<.<.<.<.<.<.<.<.<.<.<.<.<.<.<.<.<.<.<.<.<.<.<.<.<.<.<.<.<.<.<.<.<.<.<.<.<.<.<.a.!.4XwXwXwXwXwXwXwXwXwXwXwXwXwXwXwXwXwXwXwXwXwXwXwXwXwXwXwXwXwXwXwXwXwXwXwXwXwXwXwXwXwXwXwXwXwXwXwXwXwXwXwXwXwXwXwXwXwXwXwXwXwXwXwXwXwXwXwXwXwXwXwXwXwXwXwXwXwXwXwXqX=XI.y.<.<.<.<.<.<.<.<.<.<.<.<.<.<.<.<.<.<.<.2.5 g N N N N N N N N N N N N N N N N N B Z                                                                                         ",
"                                                                                            <.<.<.<.<.<.<.<.<.<.<.<.<.<.<.<.<.<.<.<.<.<.<.<.<.<.<.<.<.<.<.<.<.<.<.<.<.<.<.,.<.i.Q.-XwXwXwXwXwXwXwXwXwXwXwXwXwXwXwXwXwXwXwXwXwXwXwXwXwXwXwXwXwXwXwXwXwXwXwXwXwXwXwXwXwXwXwXwXwXwXwXwXwXwXwXwXwXwXwXwXwXwXwXwXwXwXwXwXwXwXwXwXwXwXwXwXwXwXwXqX&XL.r.;.<.<.<.<.<.<.<.<.<.<.<.<.<.<.<.<.<.<.<.-.r z N N N N N N N N N N N N N N N N N B                                                                                             ",
"                                                                                              <.<.<.<.<.<.<.<.<.<.<.<.<.<.<.<.<.<.<.<.<.<.<.<.<.<.<.<.<.<.<.<.<.<.<.<.<.<.<.<.<.<.i.I.$XqXwXwXwXwXwXwXwXwXwXwXwXwXwXwXwXwXwXwXwXwXwXwXwXwXwXwXwXwXwXwXwXwXwXwXwXwXwXwXwXwXwXwXwXwXwXwXwXwXwXwXwXwXwXwXwXwXwXwXwXwXwXwXwXwXwXwXwXwXwXwX7X[.J.e.<.<.<.<.<.<.<.<.<.<.<.<.<.<.<.<.<.<.<.<.:.8.v B N N N N N N N N N N N N N N N N N B                                                                                               ",
"                                                                                                <.<.<.<.<.<.<.<.<.<.<.<.<.<.<.<.<.<.<.<.<.<.<.<.<.<.<.<.<.<.<.<.<.<.<.<.<.<.<.<.<.<.<.3.j.).4XwXwXwXwXwXwXwXwXwXwXwXwXwXwXwXwXwXwXwXwXwXwXwXwXwXwXwXwXwXwXwXwXwXwXwXwXwXwXwXwXwXwXwXwXwXwXwXwXwXwXwXwXwXwXwXwXwXwXwXwXwXwXwXwXwXqX-X^.d.1.,.<.<.<.<.<.<.<.<.<.<.<.<.<.<.<.<.<.<.<.<.&.9 g N N N N N N N N N N N N N N N N N N B                                                                                                 ",
"                                                                                                  <.<.<.<.<.<.<.<.<.<.<.<.<.<.<.<.<.<.<.<.<.<.<.<.<.<.<.<.<.<.<.<.<.<.<.<.<.<.<.<.<.<.<.<.<.a.T.%X0XwXwXwXwXwXwXwXwXwXwXwXwXwXwXwXwXwXwXwXwXwXwXwXwXwXwXwXwXwXwXwXwXwXwXwXwXwXwXwXwXwXwXwXwXwXwXwXwXwXwXwXwXwXwXwXwXwXwXwXwX5X).P.y.<.,.<.<.<.<.<.<.<.<.<.<.<.<.<.<.<.<.<.<.<.<.:.7.y B N N N N N N N N N N N N N N N N N N B                                                                                                   ",
"                                                                                                    <.<.<.<.<.<.<.<.<.<.<.<.<.<.<.<.<.<.<.<.<.<.<.<.<.<.<.<.<.<.<.<.<.<.<.<.<.<.<.<.<.<.<.<.<.,.3.d.R.$X6XwXwXwXwXwXwXwXwXwXwXwXwXwXwXwXwXwXwXwXwXwXwXwXwXwXwXwXwXwXwXwXwXwXwXwXwXwXwXwXwXwXwXwXwXwXwXwXwXwXwXwXwXwXqX4X#XL.i.1.,.<.<.<.<.<.<.<.<.<.<.<.<.<.<.<.<.<.<.<.<.<.<.*.7 g N N N N N N N N N N N N N N N N N N N B                                                                                                     ",
"                                                                                                      <.<.<.<.<.<.<.<.<.<.<.<.<.<.<.<.<.<.<.<.<.<.<.<.<.<.<.<.<.<.<.<.<.<.<.<.<.<.<.<.<.<.<.<.<.<.,.<.3.p.Y._.4XqXwXwXwXwXwXwXwXwXwXwXwXwXwXwXwXwXwXwXwXwXwXwXwXwXwXwXwXwXwXwXwXwXwXwXwXwXwXwXwXwXwXwXwXwXwXwX0X=X).P.r.1.;.<.<.<.<.<.<.<.<.<.<.<.<.<.<.<.<.<.<.<.<.<.<.<.>.9.v B N N N N N N N N N N N N N N N N N N N B                                                                                                       ",
"                                                                                                        <.<.<.<.<.<.<.<.<.<.<.<.<.<.<.<.<.<.<.<.<.<.<.<.<.<.<.<.<.<.<.<.<.<.<.<.<.<.<.<.<.<.<.<.<.<.<.<.<.;.1.i.j.T.#X4X7XwXwXwXwXwXwXwXwXwXwXwXwXwXwXwXwXwXwXwXwXwXwXwXwXwXwXwXwXwXwXwXwXwXwXwXwXwXqX7X-X_.I.g.t.<.<.<.<.<.<.<.<.<.<.<.<.<.<.<.<.<.<.<.<.<.<.<.<.<.<.:.q.r x N N N N N N N N N N N N N N N N N N N N B                                                                                                         ",
"                                                                                                          <.<.<.<.<.<.<.<.<.<.<.<.<.<.<.<.<.<.<.<.<.<.<.<.<.<.<.<.<.<.<.<.<.<.<.<.<.<.<.<.<.<.<.<.<.<.<.<.<.<.<.<.;.1.t.g.I./.#X-X7XqXwXwXwXwXwXwXwXwXwXwXwXwXwXwXwXwXwXwXwXwXwXwXwXwXwXqX0X6X=X_.^.P.i.e.1.;.,.<.<.<.<.<.<.<.<.<.<.<.<.<.<.<.<.<.<.<.<.<.<.<.<.<.<.4.7 k N N N N N N N N N N N N N N N N N N N N B A                                                                                                           ",
"                                                                                                              <.<.<.<.<.<.<.<.<.<.<.<.<.<.<.<.<.<.<.<.<.<.<.<.<.<.<.<.<.<.<.<.<.<.<.<.<.<.<.<.<.<.<.<.<.<.<.<.<.<.<.<.<.,.<.<.1.e.s.l.L.T.!._.&X>X5X6X6X7X7X7X7X7X7X7X7X6X5X4X,X%X).Q.Y.K.h.i.e.<.<.;.<.<.<.<.<.<.<.<.<.<.<.<.<.<.<.<.<.<.<.<.<.<.<.<.<.<.<.<.<.*.5 d B N N N N N N N N N N N N N N N N N N N N B                                                                                                               ",
"                                                                                                                <.<.<.<.<.<.<.<.<.<.<.<.<.<.<.<.<.<.<.<.<.<.<.<.<.<.<.<.<.<.<.<.<.<.<.<.<.<.<.<.<.<.<.<.<.<.<.<.<.<.<.<.<.<.<.<.<.<.,.;.<.;.<.3.y.t.r.t.i.i.i.i.i.i.i.i.t.r.r.t.1.<.;.;.,.,.<.<.<.<.<.<.<.<.<.<.<.<.<.<.<.<.<.<.<.<.<.<.<.<.<.<.<.<.<.<.<.<.*.c.f B N N N N N N N N N N N N N N N N N N N N N B                                                                                                                 ",
"                                                                                                                  <.<.<.<.<.<.<.<.<.<.<.<.<.<.<.<.<.<.<.<.<.<.<.<.<.<.<.<.<.<.<.<.<.<.<.<.<.<.<.<.<.<.<.<.<.<.<.<.<.<.<.<.<.<.<.<.<.<.<.<.<.<.<.<.,.<.<.,.,.,.,.,.;.<.<.<.<.<.<.<.<.<.<.<.<.<.<.<.<.<.<.<.<.<.<.<.<.<.<.<.<.<.<.<.<.<.<.<.<.<.<.<.<.<.<.*.5 f V N N N N N N N N N N N N N N N N N N N N N N A                                                                                                                   ",
"                                                                                                                      <.<.<.<.<.<.<.<.<.<.<.<.<.<.<.<.<.<.<.<.<.<.<.<.<.<.<.<.<.<.<.<.<.<.<.<.<.<.<.<.<.<.<.<.<.<.<.<.<.<.<.<.<.<.<.<.<.<.<.<.<.<.<.<.<.<.<.<.<.<.<.<.<.<.<.<.<.<.<.<.<.<.<.<.<.<.<.<.<.<.<.<.<.<.<.<.<.<.<.<.<.<.<.<.<.<.<.<.<.<.:.0.8 d B N N N N N N N N N N N N N N N N N N N N N N B                                                                                                                       ",
"                                                                                                                        <.<.<.<.<.<.<.<.<.<.<.<.<.<.<.<.<.<.<.<.<.<.<.<.<.<.<.<.<.<.<.<.<.<.<.<.<.<.<.<.<.<.<.<.<.<.<.<.<.<.<.<.<.<.<.<.<.<.<.<.<.<.<.<.<.<.<.<.<.<.<.<.<.<.<.<.<.<.<.<.<.<.<.<.<.<.<.<.<.<.<.<.<.<.<.<.<.<.<.<.<.<.<.<.<.<.<.>.5.7 h B N N N N N N N N N N N N N N N N N N N N N N N B                                                                                                                         ",
"                                                                                                                          <.<.<.<.<.<.<.<.<.<.<.<.<.<.<.<.<.<.<.<.<.<.<.<.<.<.<.<.<.<.<.<.<.<.<.<.<.<.<.<.<.<.<.<.<.<.<.<.<.<.<.<.<.<.<.<.<.<.<.<.<.<.<.<.<.<.<.<.<.<.<.<.<.<.<.<.<.<.<.<.<.<.<.<.<.<.<.<.<.<.<.<.<.<.<.<.<.<.<.<.<.<.<.:.*.x.i g N N N N N N N N N N N N N N N N N N N N N N N N B A                                                                                                                           ",
"                                                                                                                              <.<.<.<.<.<.<.<.<.<.<.<.<.<.<.<.<.<.<.<.<.<.<.<.<.<.<.<.<.<.<.<.<.<.<.<.<.<.<.<.<.<.<.<.<.<.<.<.<.<.<.<.<.<.<.<.<.<.<.<.<.<.<.<.<.<.<.<.<.<.<.<.<.<.<.<.<.<.<.<.<.<.<.<.<.<.<.<.<.<.<.<.<.<.<.<.<.,.<.&.7.w d z N N N N N N N N N N N N N N N N N N N N N N N N N B                                                                                                                               ",
"                                                                                                                                <.<.<.<.<.<.<.<.<.<.<.<.<.<.<.<.<.<.<.<.<.<.<.<.<.<.<.<.<.<.<.<.<.<.<.<.<.<.<.<.<.<.<.<.<.<.<.<.<.<.<.<.<.<.<.<.<.<.<.<.<.<.<.<.<.<.<.<.<.<.<.<.<.<.<.<.<.<.<.<.<.<.<.<.<.<.<.<.<.<.<.<.<.<.<.&.7.7 c g N N N N N N N N N N N N N N N N N N N N N N N N N N B A                                                                                                                                 ",
"                                                                                                                                    <.<.<.<.<.<.<.<.<.<.<.<.<.<.<.<.<.<.<.<.<.<.<.<.<.<.<.<.<.<.<.<.<.<.<.<.<.<.<.<.<.<.<.<.<.<.<.<.<.<.<.<.<.<.<.<.<.<.<.<.<.<.<.<.<.<.<.<.<.<.<.<.<.<.<.<.<.<.<.<.<.<.<.<.<.<.<.<.<.>.*.8.7 c g B N N N N N N N N N N N N N N N N N N N N N N N N N N N B                                                                                                                                     ",
"                                                                                                                                        <.<.<.<.<.<.<.<.<.<.<.<.<.<.<.<.<.<.<.<.<.<.<.<.<.<.<.<.<.<.<.<.<.<.<.<.<.<.<.<.<.<.<.<.<.<.<.<.<.<.<.<.<.<.<.<.<.<.<.<.<.<.<.<.<.<.<.<.<.<.<.<.<.<.<.<.<.<.<.<.<.<.<.>.&.q.5 r h z N N N N N N N N N N N N N N N N N N N N N N N N N N N N N B                                                                                                                                         ",
"                                                                                                                                          <.<.<.<.<.<.<.<.<.<.<.<.<.<.<.<.<.<.<.<.<.<.<.<.<.<.<.<.<.<.<.<.<.<.<.<.<.<.<.<.<.<.<.<.<.<.<.<.<.<.<.<.<.<.<.<.<.<.<.<.<.<.<.<.<.<.<.<.<.<.<.<.<.<.<.<.<.:.&.0.8.8 r d g B N N N N N N N N N N N N N N N N N N N N N N N N N N N N N N B A                                                                                                                                           ",
"                                                                                                                                              <.<.<.<.<.<.<.<.<.<.<.<.<.<.<.<.<.<.<.<.<.<.<.<.<.<.<.<.<.<.<.<.<.<.<.<.<.<.<.<.<.<.<.<.<.<.<.<.<.<.<.<.<.<.<.<.<.<.,.,.,.,.,.<.<.<.<.<.:.>.&.0.q.x.8 r v g z B N N N N N N N N N N N N N N N N N N N N N N N N N N N N N N N N B A                                                                                                                                               ",
"                                                                                                                                                  <.<.<.<.<.<.<.<.<.<.<.<.<.<.<.<.<.<.<.<.<.<.<.<.<.<.<.<.<.<.<.<.<.<.<.<.<.<.<.<.<.<.<.<.<.<.<.<.<.<.<.<.<.<.2.%.%.-.0.0.5.7.9.c.8 p r y d k g z N N N N N N N N N N N N N N N N N N N N N N N N N N N N N N N N N N N N B A                                                                                                                                                   ",
"                                                                                                                                                      <.<.<.<.<.<.<.<.<.<.<.<.<.<.<.<.<.<.<.<.<.<.<.<.<.<.<.<.<.<.<.<.<.<.<.<.<.<.<.<.<.<.<.<.<.<.<.<.<.<.<.<.7.b k k g g l z z B B N N C N N N N N N N N N N N N N N N N N N N N N N N N N N N N N N N N N N N N N N B B                                                                                                                                                       ",
"                                                                                                                                                          <.<.<.<.<.<.<.<.<.<.<.<.<.<.<.<.<.<.<.<.<.<.<.<.<.<.<.<.<.<.<.<.<.<.<.<.<.<.<.<.<.<.<.<.<.<.<.<.<.<.2.p B C N N N N N N N N N N N N N N N N N N N N N N N N N N N N N N N N N N N N N N N N N N N N N N B A                                                                                                                                                           ",
"                                                                                                                                                              <.<.<.<.<.<.<.<.<.<.<.<.<.<.<.<.<.<.<.<.<.<.<.<.<.<.<.<.<.<.<.<.<.<.<.<.<.<.<.<.<.<.<.<.<.<.<.<.<.&.p V N N N N N N N N N N N N N N N N N N N N N N N N N N N N N N N N N N N N N N N N N N N N B A                                                                                                                                                               ",
"                                                                                                                                                                  <.<.<.<.<.<.<.<.<.<.<.<.<.<.<.<.<.<.<.<.<.<.<.<.<.<.<.<.<.<.<.<.<.<.<.<.<.<.<.<.<.<.<.<.<.<.<.<.&.p B N N N N N N N N N N N N N N N N N N N N N N N N N N N N N N N N N N N N N N N N B B A                                                                                                                                                                   ",
"                                                                                                                                                                        <.<.<.<.<.<.<.<.<.<.<.<.<.<.<.<.<.<.<.<.<.<.<.<.<.<.<.<.<.<.<.<.<.<.<.<.<.<.<.<.<.<.<.<.<.<.&.p B N N N N N N N N N N N N N N N N N N N N N N N N N N N N N N N N N N N N N B B                                                                                                                                                                         ",
"                                                                                                                                                                            <.<.<.<.<.<.<.<.<.<.<.<.<.<.<.<.<.<.<.<.<.<.<.<.<.<.<.<.<.<.<.<.<.<.<.<.<.<.<.<.<.<.<.<.<.&.p B N N N N N N N N N N N N N N N N N N N N N N N N N N N N N N N N N B B A                                                                                                                                                                             ",
"                                                                                                                                                                                  <.<.<.<.<.<.<.<.<.<.<.<.<.<.<.<.<.<.<.<.<.<.<.<.<.<.<.<.<.<.<.<.<.<.<.<.<.<.<.<.<.<.<.&.p B N N N N N N N N N N N N N N N N N N N N N N N N N N N N N N B A                                                                                                                                                                                   ",
"                                                                                                                                                                                        <.<.<.<.<.<.<.<.<.<.<.<.<.<.<.<.<.<.<.<.<.<.<.<.<.<.<.<.<.<.<.<.<.<.<.<.<.<.<.<.,.&.p B N N N N N N N N N N N N N N N N N N N N N N N N N B B A                                                                                                                                                                                         ",
"                                                                                                                                                                                                <.<.<.<.<.<.<.<.<.<.<.<.<.<.<.<.<.<.<.<.<.<.<.<.<.<.<.<.<.<.<.<.<.<.<.<.<.<.&.a B N N N N N N N N N N N N N N N N N N N N N B B A                                                                                                                                                                                               ",
"                                                                                                                                                                                                        <.<.<.<.<.<.<.<.<.<.<.<.<.<.<.<.<.<.<.<.<.<.<.<.<.<.<.<.<.<.<.<.<.<.<.&.r B N N N N N N N N N N N N N N N N B B B                                                                                                                                                                                                       ",
"                                                                                                                                                                                                                <.<.<.<.<.<.<.<.<.<.<.<.<.<.<.<.<.<.<.<.<.<.<.<.<.<.<.<.<.<.<.<.&.r B N N N N N N N N N N B B B B                                                                                                                                                                                                               ",
"                                                                                                                                                                                                                          :.:.<.<.<.<.<.<.<.<.<.<.<.<.<.<.<.<.<.<.<.<.<.<.<.<.<.<.*.i B N N B B N B B                                                                                                                                                                                                                           ",
"                                                                                                                                                                                                                                          :.:.<.<.<.<.<.<.<.<.<.<.<.<.<.<.<.<.<.:.:.                                                                                                                                                                                                                                            ",
"                                                                                                                                                                                                                                                                                                                                                                                                                                                                                                                                ",
"                                                                                                                                                                                                                                                                                                                                                                                                                                                                                                                                ",
"                                                                                                                                                                                                                                                                                                                                                                                                                                                                                                                                ",
"                                                                                                                                                                                                                                                                                                                                                                                                                                                                                                                                ",
"                                                                                                                                                                                                                                                                                                                                                                                                                                                                                                                                ",
"                                                                                                                                                                                                                                                                                                                                                                                                                                                                                                                                ",
"                                                                                                                                                                                                                                                                                                                                                                                                                                                                                                                                ",
"                                                                                                                                                                                                                                                                                                                                                                                                                                                                                                                                ",
"                                                                                                                                                                                                                                                                                                                                                                                                                                                                                                                                ",
"                                                                                                                                                                                                                                                                                                                                                                                                                                                                                                                                "
};
